!!!!SEGMENT: pl-sa--190-a-v-20--008_pych-leopold--missa-in-d-agnus-dei.krn
!!!cenid: 17xx:1580
!!!COM: Pych, Leopold
!!!COM-rismID: pe30018039
!!!CDT: <1758->1774
!!!CNT:
!!!OPR: Missa in D
!!!OTL: Agnus Dei
!!!OMV: 008
!!!PDT:
!!!AGN: Sacred; Mass
!!!SMS-siglum: PL-SA
!!!SMS-shelfmark: 190/A V 20
!!!SMS-shelfwork: 001-008 M
!!!SMS-variant:
!!!SMS-altvar:
!!!NIFC-rismSourceID: 1001035913
!!!NIFC-islandoraID:
!!!URL-pdf-islandora:
!!!URL-scan: https://bc.bdsandomierz.pl/dlibra/publication/1527/edition/1495/content @EN{Scan on Cyfrowa Biblioteka Diecezjalna w Sandomierzu} @PL{Skany w portalu Cyfrowa Biblioteka Diecezjalna w Sandomierzu}
!!!ONB-nifc: UWAGA: części Mszy: 1. Sinfonia, 2. Kyrie, 3. Gloria, 4. Credo, 5. Sanctus, 6. Osanna, 7. Benedictus, 8. Agnus Dei, 9. Dona nobis
!!!AIN: 1 alto 1 bass 2 cor 1 tenor 2 violn
!!!key: D
**kern	**fba	**dynam	**kern	**dynam	**kern	**dynam	**kern	**text	**kern	**text	**kern	**text	**kern	**dynam	**kern
*part8	*	*part8	*part7	*part7	*part6	*part6	*part5	*part5	*part4	*part4	*part3	*part3	*part2	*part2	*part1
*staff8	*	*	*staff7	*	*staff6	*	*staff5	*staff5	*staff4	*staff4	*staff3	*staff3	*staff2	*	*staff1
*I"Fundamento	*	*	*I"Violino 2do:	*	*I"Violino Primo:	*	*I"Baſso	*	*I"Tenore.	*	*I"Alto	*	*I"Cornu 2do ex D:	*	*I"Cornu Primo ex D#
*I'fund	*	*	*I'vl 2	*	*I'vl 1	*	*I'B	*	*I'T	*	*I'A	*	*I'cor 2	*	*I'cor 1
*	*	*	*Ivioln	*	*Ivioln	*	*Ibass	*	*Itenor	*	*Ialto	*	*Icor	*	*Icor
*	*	*	*ICstr	*	*ICstr	*	*ICvox	*	*ICvox	*	*ICvox	*	*ICbras	*	*ICbras
*IGcont	*	*	*	*	*	*	*IGcoro	*	*IGcoro	*	*IGcoro	*	*	*	*
*clefF4	*	*	*clefG2	*	*clefG2	*	*clefF4	*	*clefC4	*	*clefC3	*	*clefG2	*	*clefG2
*	*	*	*	*	*	*	*	*	*	*	*	*	*ITrd6c10	*	*ITrd6c10
*k[f#c#]	*	*	*k[f#c#]	*	*k[f#c#]	*	*k[f#c#]	*	*k[f#c#]	*	*k[f#c#]	*	*k[f#c#]	*	*k[f#c#]
*D:	*	*	*D:	*	*D:	*	*D:	*	*D:	*	*D:	*	*	*	*
*M4/4	*	*	*M4/4	*	*M4/4	*	*M4/4	*	*M4/4	*	*M4/4	*	*M4/4	*	*M4/4
*met(c)	*	*	*met(c)	*	*met(c)	*	*met(c)	*	*met(c)	*	*met(c)	*	*met(c)	*	*met(c)
=1	=1	=1	=1	=1	=1	=1	=1	=1	=1	=1	=1	=1	=1	=1	=1
*all\right	*	*	*all\right	*below	*	*	*a;;\right	*	*all\right	*	*all\right	*	*all\right	*	*all\right
!	!	!	!	!	!	!	!	!	!LO:TX:t=P:problem=znaki [c# F#]	!	!	!	!	!	!LO:TX:t=P:problem=all\ left or right&colon; global
!	!	!	!	!	!	!	!	!	!	!	!	!	!	!	!LO:TX:t=P:problem=partia in D
!	!	!	!	!	!	!	!	!	!	!	!	!	!	!	!LO:TX:t=P:problem=na stronie tytułowej jako "clarini"
!	!	!	!	!	!LO:TX:t=P:problem=all\ left center or right&colon; global	!	!	!	!	!	!	!	!LO:TX:t=P:problem=all\ right&colon; global	!	!LO:TX:a:t=adagio
!LO:TX:t=P:problem=all\ left center or right&colon; global	!	!	!LO:TX:t=P:problem=all\ left center or right&colon; global	!	!LO:TX:t=P:problem=mixed beam	!	!	!	!	!	!	!	!LO:TX:t=P:problem=na stronie tytułowej jako "clarini"	!	!LO:TX:a:t=Agnus Dei
!LO:TX:a:t=Agnus Dei	!	!	!LO:TX:t=P:problem=mixed beam	!	!LO:TX:a:t=Agnus	!	!	!	!	!	!LO:TX:a:t=adagio	!	!LO:TX:a:t=adagio	!	!
!LO:TX:a:t=adagio	!	!	!LO:TX:a:t=Agnus \nDei	!	!LO:TX:a:t=adagi	!	!LO:TX:a:t=adagio	!	!	!	!LO:TX:t=P:problem=all\ left or right&colon; global	!	!LO:TX:a:t=Agnus Dei	!	!
8r	.	.	16.d/LL	.	16.d/LL	.	0r	.	0r	.	0r	.	0r	.	0r
.	.	.	32dd\JJk	.	32dd\JJk	.	.	.	.	.	.	.	.	.	.
8D\L	6	.	16.ff#\LL	.	16.ff#\LL	.	.	.	.	.	.	.	.	.	.
.	.	.	32aa\JJk	.	32aa\JJk	.	.	.	.	.	.	.	.	.	.
8G\	.	.	16.bb\LL	.	16.bb\LL	.	.	.	.	.	.	.	.	.	.
.	.	.	32gg\JJk	.	32gg\JJk	.	.	.	.	.	.	.	.	.	.
8A\J	.	.	(16.ee\LL	.	16.ee\LL	.	.	.	.	.	.	.	.	.	.
.	.	.	32cc#\JJk)	.	32cc#\JJk	.	.	.	.	.	.	.	.	.	.
!	!	!	!LO:TX:t=P:problem=mixed beam	!	!LO:TX:t=P:problem=mixed beam	!	!	!	!	!	!	!	!	!	!
8D\L	.	.	16.dd\LL	.	16.dd\LL	.	.	.	.	.	.	.	.	.	.
.	.	.	32d/JJk	.	32d/JJk	.	.	.	.	.	.	.	.	.	.
8d\	.	.	16.f#/LL	.	16.f#/LL	.	.	.	.	.	.	.	.	.	.
.	.	.	32a/JJk	.	32a/JJk	.	.	.	.	.	.	.	.	.	.
8G\	.	.	16.b/LL	.	16.b/LL	.	.	.	.	.	.	.	.	.	.
.	.	.	32g/JJk	.	32g/JJk	.	.	.	.	.	.	.	.	.	.
8A\J	.	.	16.e/LL	.	16.e/LL	.	.	.	.	.	.	.	.	.	.
.	.	.	32c#/JJk	.	32c#/JJk	.	.	.	.	.	.	.	.	.	.
=2	=2	=2	=2	=2	=2	=2	=2	=2	=2	=2	=2	=2	=2	=2	=2
!	!	!	!	!	!LO:TX:t=P:problem=mixed beam	!	!	!	!	!	!	!	!	!	!
4D\	.	.	16.d/LL	.	16.d/LL	.	.	.	.	.	.	.	.	.	.
.	.	.	32a/JJk	.	32dd\JJk	.	.	.	.	.	.	.	.	.	.
.	.	.	16.dd\LL	.	16.ff#\LL	.	.	.	.	.	.	.	.	.	.
.	.	.	32ff#\JJk	.	32aa\JJk	.	.	.	.	.	.	.	.	.	.
.	.	.	8qqff#/	.	(<8qqaa/	.	.	.	.	.	.	.	.	.	.
8r	.	.	8ee\L	.	8gg\L)	.	.	.	.	.	.	.	.	.	.
4d\	.	.	8dd\J	.	8ff#\J	.	.	.	.	.	.	.	.	.	.
.	.	.	16.r	.	16.r	.	.	.	.	.	.	.	.	.	.
!	!	!	!	!LO:DY:a:t=pia	!	!	!	!	!	!	!	!	!	!	!
.	.	.	32a\KLL	p	32dd\KLL	.	.	.	.	.	.	.	.	.	.
8D\	.	.	16.dd\	.	16.ff#\	.	.	.	.	.	.	.	.	.	.
.	.	.	32ff#\JJk	.	32aa\JJk	.	.	.	.	.	.	.	.	.	.
.	.	.	(<8qqff#/	.	8qqaa/	.	.	.	.	.	.	.	.	.	.
8r	.	.	8ee\L)	.	8gg\L	.	.	.	.	.	.	.	.	.	.
8d\	.	.	8dd\J	.	8ff#\J	.	.	.	.	.	.	.	.	.	.
!	!	!	!	!	!LO:LB:g=original	!	!	!	!	!	!	!	!	!	!
=3	=3	=3	=3	=3	=3	=3	=3	=3	=3	=3	=3	=3	=3	=3	=3
!	!	!	!	!LO:DY:t=for	!	!	!	!	!	!	!	!	!	!	!
8F#\L	.	.	(32ddd\KLL	f	(32ddd\KLL	.	1r	.	1r	.	1r	.	1r	.	1r
.	.	.	16.ccc#\JJ)	.	16.ccc#\JJ)	.	.	.	.	.	.	.	.	.	.
8F#\	.	.	(32bb\KLL	.	(32bb\KLL	.	.	.	.	.	.	.	.	.	.
.	.	.	16.aa\JJ)	.	16.aa\JJ)	.	.	.	.	.	.	.	.	.	.
!	!	!	!LO:LB:g=original	!	!	!	!	!	!	!	!	!	!	!	!
8G\	.	.	(32bb\KLL	.	(32bb\KLL	.	.	.	.	.	.	.	.	.	.
.	.	.	16.gg\JJ)	.	16.gg\JJ)	.	.	.	.	.	.	.	.	.	.
8G\J	.	.	(32ee\KLL	.	(32ee\KLL	.	.	.	.	.	.	.	.	.	.
.	.	.	16.dd\JJ)	.	16.dd\JJ)	.	.	.	.	.	.	.	.	.	.
!LO:TX:t=P:problem=mixed beam	!	!	!	!	!	!	!	!	!	!	!	!	!	!	!
.	.	.	.	.	(<8qqdd/	.	.	.	.	.	.	.	.	.	.
8.A\L	.	.	16.a/LL	.	16.cc#\LL)	.	.	.	.	.	.	.	.	.	.
.	.	.	32b/JK	.	32dd\JK	.	.	.	.	.	.	.	.	.	.
.	.	.	8cc#/J	.	8ee\J	.	.	.	.	.	.	.	.	.	.
16AA/Jk	.	.	.	.	.	.	.	.	.	.	.	.	.	.	.
16A\LL	.	.	4r;;	.	4r;;	.	.	.	.	.	.	.	.	.	.
16G\	.	.	.	.	.	.	.	.	.	.	.	.	.	.	.
16F#\	.	.	.	.	.	.	.	.	.	.	.	.	.	.	.
16E\JJ	.	.	.	.	.	.	.	.	.	.	.	.	.	.	.
!LO:LB:g=original	!	!	!	!	!	!	!	!	!	!	!	!	!	!	!
=4	=4	=4	=4	=4	=4	=4	=4	=4	=4	=4	=4	=4	=4	=4	=4
!LO:TX:a:i:t=Tut	!	!	!LO:TX:t=P:problem=mixed beam	!	!LO:TX:t=P:problem=mixed beam	!	!	!	!	!	!	!	!	!	!
8D\L	.	.	16.d/LL	.	16.d/LL	.	8D\	A-	8d\	A-	8f#\	A-	8f#\L	.	8a~\L
.	.	.	32dd\JJk	.	32dd\JJk	.	.	.	.	.	.	.	.	.	.
8D\	.	.	16.ff#\LL	.	16.ff#\LL	.	8D\	-gnus	8d\	-gnus	8f#\	-gnus	8f#\	.	8a~\
.	.	.	32aa\JJk	.	32aa\JJk	.	.	.	.	.	.	.	.	.	.
8G\	.	.	(32bb\KLL	.	(32bb\KLL	.	(8G\L	De-	8B\L	De-	8g\L	De-	8g\	.	8b~\
.	.	.	16.gg\JJ)	.	16.gg\JJ)	.	.	.	.	.	.	.	.	.	.
8A\J	.	.	32ee\KLL	.	(32ee\KLL	.	8A\J)	.	8A\J	.	8e\J	.	8e\J	.	8cc#~\J
.	.	.	16.cc#\JJ	.	16.cc#\JJ)	.	.	.	.	.	.	.	.	.	.
!	!	!	!LO:TX:t=P:problem=mixed beam	!	!LO:TX:t=P:problem=mixed beam	!	!	!	!	!	!	!	!	!	!
8D\L	.	.	16.dd\LL	.	16.dd\LL	.	8D\	-i	8A\	-i	8f#\	-i	8f#\L	.	8dd~\L
.	.	.	32d/JJk	.	32d/JJk	.	.	.	.	.	.	.	.	.	.
8D\	.	.	16.f#/LL	.	16.f#/LL	.	8D\	qui	8d\	qui	8f#\	qui	8f#\	.	8a~\
.	.	.	32a/JJk	.	32a/JJk	.	.	.	.	.	.	.	.	.	.
8G\	.	.	32b/KLL	.	16.b/LL	.	(8G\L	tol-	8B\L	tol-	8g\L	tol-	8e\	.	8g~\
.	.	.	16.g/JJ	.	.	.	.	.	.	.	.	.	.	.	.
.	.	.	.	.	32g/JJk	.	.	.	.	.	.	.	.	.	.
.	.	.	.	.	.	.	.	.	.	.	.	.	.	.	8qqf#/
8A\J	.	.	32e/KLL	.	32e/KLL	.	8A\J)	.	8A\J	.	8e\J	.	8A\J	.	8e~\J
.	.	.	16.c#/JJ	.	16.c#/JJ	.	.	.	.	.	.	.	.	.	.
=5	=5	=5	=5	=5	=5	=5	=5	=5	=5	=5	=5	=5	=5	=5	=5
!	!	!	!LO:TX:t=P:problem=mixed beam	!	!LO:TX:t=P:problem=mixed beam	!	!	!	!	!	!	!	!	!	!
8D\L	.	.	16.d/LL	.	16.d/LL	.	8D\	-lis	8A\	-lis	8f#\	-lis	8d\L	.	8f#\L
.	.	.	32a/JJk	.	32dd\JJk	.	.	.	.	.	.	.	.	.	.
8D\	.	.	16.dd\LL	.	32ff#\KLL	.	8D\	pec-	8f#\	pec-	8a\	pec-	(8f#\	.	8a\
.	.	.	.	.	16.aa\JJ	.	.	.	.	.	.	.	.	.	.
.	.	.	32ff#\JJk	.	.	.	.	.	.	.	.	.	.	.	.
.	.	.	8qqff#/	.	.	.	.	.	.	.	.	.	.	.	8qqa/
8A\	.	.	8ee\L	.	8gg\L	.	8A\	-ca-	8e\	-ca-	8g\	-ca-	8e\	.	8g\
8D\J	.	.	8dd\J	.	8ff#\J	.	8D\	-ta	8d\	-ta	8f#\	-ta	8d\J)	.	8f#\J
!	!	!	!	!	!LO:TX:t=P:problem=znak łamania systemu	!	!	!	!	!	!	!	!	!	!
8d\L	.	.	16.r	.	16.r	.	8r	.	8r	.	8r	.	8r	.	8r
!	!	!	!	!	!LO:LB:g=original	!	!	!	!	!	!	!	!	!	!
.	.	.	32a\KLL	.	32dd\KLL	.	.	.	.	.	.	.	.	.	.
!	!	!	!	!	!	!	!	!	!	!	!	!	!	!LO:DY:t=pia	!
8D\	.	.	16.dd\	.	16.ff#\	.	8D\	qui	8f#\	qui	8a\	qui	(8f#\L	p	8a\L
.	.	.	32ff#\JJk	.	32aa\JJk	.	.	.	.	.	.	.	.	.	.
.	.	.	8qqff#/	.	(<8qqaa/	.	.	.	.	.	.	.	.	.	8qqa/
8A\	.	.	8ee\L	.	8gg\L)	.	8A\	tol-	8e\	tol-	8g\	tol-	8e\	.	8g\
8D\J	.	.	8dd\J	.	8ff#\J	.	8D\	-lis	8d\	-lis	8f#\	-lis	8d\J)	.	8f#\J
!	!	!	!LO:LB:g=original	!	!	!	!LO:LB:g=original	!	!LO:LB:g=original	!	!	!	!	!	!
=6	=6	=6	=6	=6	=6	=6	=6	=6	=6	=6	=6	=6	=6	=6	=6
8F#\L	.	.	(32ddd\KLL	.	(32ddd\KLL	.	8r	.	8r	.	8r	.	8r	.	8r
.	.	.	16.ccc#\JJ)	.	16.ccc#\JJ)	.	.	.	.	.	.	.	.	.	.
8F#\	.	.	(32bb\KLL	.	(32bb\KLL	.	8F#\	pec-	8f#\	pec-	8a\	pec-	8d\	.	8a\
.	.	.	16.aa\JJ)	.	16.aa\JJ)	.	.	.	.	.	.	.	.	.	.
8G\	.	.	(32bb\KLL	.	(32bb\KLL	.	8G\	-ca-	8d\	-ca-	8b\	-ca-	8r	.	8r
.	.	.	16.gg\JJ)	.	16.gg\JJ)	.	.	.	.	.	.	.	.	.	.
8G\J	.	.	(32ee\KLL	.	(32ee\KLL	.	8G\	-ta	8e\	-ta	8b\	-ta	8d\	.	8b\
.	.	.	16.dd\JJ)	.	16.dd\JJ)	.	.	.	.	.	.	.	.	.	.
!LO:TX:t=P:problem=mixed beam	!	!	!	!	!	!	!	!	!	!	!	!	!	!	!
.	.	.	(8qqb/	.	(<8qqdd/	.	.	.	.	.	.	.	.	.	.
!	!	!	!	!	!	!	!	!	!	!	!LO:LB:g=original	!	!	!	!
8A\L	.	.	16a/KL)	.	16.cc#\LL)	.	8A\	mun-	8e\	mun-	8a\	mun-	8r	.	8r
.	.	.	8b/	.	.	.	.	.	.	.	.	.	.	.	.
.	.	.	.	.	32dd\JK	.	.	.	.	.	.	.	.	.	.
8AA/J	.	.	.	.	8ee\J	.	8AA/	-di	8e\	-di	8a\	-di	16.A/LL	.	16.e\LL
.	.	.	16cc#/Jk	.	.	.	.	.	.	.	.	.	.	.	.
.	.	.	.	.	.	.	.	.	.	.	.	.	32A/JJk	.	(32e\JJk
!	!	!	!	!	!	!LO:DY:t=pia	!	!	!	!	!	!	!	!	!
4r	.	.	16.A/LL	.	8.c#m</L	p	4r	.	4r	.	4r	.	8A/	.	4e\M)
!	!	!	!	!LO:DY:a:t=pia	!	!	!	!	!	!	!	!	!	!	!
.	.	.	32B/JK	p	.	.	.	.	.	.	.	.	.	.	.
.	.	.	8c#/J	.	.	.	.	.	.	.	.	.	8r	.	.
.	.	.	.	.	(32d/LL	.	.	.	.	.	.	.	.	.	.
.	.	.	.	.	32e/JJJ)	.	.	.	.	.	.	.	.	.	.
!	!	!	!	!	!	!	!	!	!	!	!	!	!LO:LB:g=original	!	!LO:LB:g=original
=7	=7	=7	=7	=7	=7	=7	=7	=7	=7	=7	=7	=7	=7	=7	=7
!	!	!	!	!LO:DY:t=for	!	!	!	!	!	!	!	!	!	!	!
8C#/L	.	.	(32A/KLL	f	(32A/KLL	.	8C#/	Mi-	8e\	mi-	8a\	mi-	8r	.	8r
!	!	!	!	!	!	!LO:DY:b:t=for	!	!	!	!	!	!	!	!	!
.	.	.	16.e/JJ)	.	16.a/JJ)	f	.	.	.	.	.	.	.	.	.
8C#/	.	.	(32a/KLL	.	(32cc#\KLL	.	8C#/	-se-	8e\	-se-	8a\	-se-	16A/LL	.	16e\LL
.	.	.	16.cc#/JJ)	.	16.ee\JJ)	.	.	.	.	.	.	.	.	.	.
.	.	.	.	.	.	.	.	.	.	.	.	.	16A/J	.	16e\JJ
8C#/	.	.	32ee\KLL	.	(32aa\KLL	.	8C#/	-re-	8e\	-re-	8a\	-re-	8A/	.	8e\L
.	.	.	16.a\JJ	.	16.ccc#\JJ)	.	.	.	.	.	.	.	.	.	.
8C#/J	.	.	32cc#\KLL	.	(32ee\KLL	.	8C#/	-re	8e\	-re	8a\	-re	8A/J	.	8e\J
.	.	.	16.ee\JJ	.	16.ggn\JJ)	.	.	.	.	.	.	.	.	.	.
!	!	!	!LO:TX:t=P:problem=mixed beam	!	!LO:TX:t=P:problem=mixed beam	!	!	!	!	!	!	!	!	!	!
8D/L	.	.	16.dd\LL	.	16.ff#\LL	.	4D/	no-	4d\	no-	4a\	no-	8.d\L	.	8.f#\L
.	.	.	32d/JJk	.	32d/JJk	.	.	.	.	.	.	.	.	.	.
8D/	.	.	16.f#/LL	.	32f#/KLL	.	.	.	.	.	.	.	.	.	.
.	.	.	.	.	16.a/JJ	.	.	.	.	.	.	.	.	.	.
.	.	.	.	.	.	.	.	.	.	.	.	.	16d\Jk	.	16f#\Jk
.	.	.	32a/JJk	.	.	.	.	.	.	.	.	.	.	.	.
8D/	.	.	16.dd\LL	.	32dd\KLL	.	4D/	-bis	4d\	-bis	4a\	-bis	4dM\	.	4f#m\
.	.	.	.	.	16.ff#\JJ	.	.	.	.	.	.	.	.	.	.
.	.	.	32ff#\JJk	.	.	.	.	.	.	.	.	.	.	.	.
8D/J	.	.	16.aa\LL	.	32aa\KLL	.	.	.	.	.	.	.	.	.	.
.	.	.	.	.	16.ddd\JJ	.	.	.	.	.	.	.	.	.	.
.	.	.	32ddd\JJk	.	.	.	.	.	.	.	.	.	.	.	.
!	!	!	!	!	!LO:PB:g=original	!	!	!	!	!	!	!	!	!	!
=8	=8	=8	=8	=8	=8	=8	=8	=8	=8	=8	=8	=8	=8	=8	=8
*	*	*	*	*	*	*	*	*ij	*	*ij	*	*ij	*	*	*
8D\L	6	.	16.r	.	16.r	.	8D\	mi-	8f#\	mi-	8b\	mi-	8r	.	8r
.	.	.	32f#\KLL	.	32b\KLL	.	.	.	.	.	.	.	.	.	.
8D\	.	.	16.b\	.	16.dd\	.	8D\	-se-	8f#\	-se-	8b\	-se-	16.d\LL	.	16.f#\LL
.	.	.	32dd\JJk	.	32ff#\JJk	.	.	.	.	.	.	.	32d\JJk	.	32f#\JJk
8D\	.	.	16.ff#\LL	.	16.bb\LL	.	8D\	-re-	8f#\	-re-	8b\	-re-	16d\LL	.	16.f#\LL
.	.	.	.	.	.	.	.	.	.	.	.	.	16d\J	.	.
.	.	.	32b\JJk	.	32dddn\JJk	.	.	.	.	.	.	.	.	.	32dd\JJk
8D\J	.	.	16.dd\LL	.	16.ff#\LL	.	8D\	-re	8f#\	-re	8b\	-re	8f#\J	.	16.b\LL
*	*	*	*	*	*	*	*	*Xij	*	*	*	*	*	*	*
.	.	.	32ff#\JJk	.	32aa\JJk	.	.	.	.	.	.	.	.	.	32f#\JJk
!	!	!	!	!	!LO:TX:t=P:problem=mixed beam	!	!	!	!	!	!	!	!	!	!
8E\L	#	.	16.ee\LL	.	16.gg#X\LL	.	4E\	no-	4B\	no-	4g#X\	no-	8.e\L	.	8.g#X\L
!	!	!	!LO:TX:t=P:problem=znak łamania systemu	!	!	!	!	!	!	!	!	!	!	!	!
.	.	.	32e/JJk	.	32e/JJk	.	.	.	.	.	.	.	.	.	.
!	!	!	!LO:LB:g=original	!	!	!	!	!	!	!	!	!	!	!	!
8E\	.	.	16.g#X/LL	.	16.g#X/LL	.	.	.	.	.	.	.	.	.	.
.	.	.	.	.	.	.	.	.	.	.	.	.	16e\Jk	.	16g#\Jk
.	.	.	32b/JJk	.	32b/JJk	.	.	.	.	.	.	.	.	.	.
8E\	.	.	16.ee\LL	.	16.ee\LL	.	4E\	-bis	4B\	-bis	4g#\	-bis	4e\	.	4g#m\
*	*	*	*	*	*	*	*	*	*	*Xij	*	*	*	*	*
.	.	.	32gg#X\JJk	.	32gg#X\JJk	.	.	.	.	.	.	.	.	.	.
8E\J	.	.	16.bb\LL	.	16.bb\LL	.	.	.	.	.	.	.	.	.	.
.	.	.	32eee\JJk	.	32eee\JJk	.	.	.	.	.	.	.	.	.	.
!LO:LB:g=original	!	!	!	!	!	!	!LO:LB:g=original	!	!LO:LB:g=original	!	!	!	!	!	!
=9	=9	=9	=9	=9	=9	=9	=9	=9	=9	=9	=9	=9	=9	=9	=9
!LO:TX:t=P:problem=mixed beam	!	!	!	!	!LO:TX:t=P:problem=mixed beam	!	!	!	!	!	!	!	!	!	!
8AA/L	.	.	16.c#/LL	.	16.A/L	.	4A\	mi-	4c#\	mi-	4a\	mi-	8r	.	8r
.	.	.	32a/JJk	.	32ee\J	.	.	.	.	.	.	.	.	.	.
8A\	.	.	16.cc#\LL	.	16.aa\LL	.	.	.	.	.	.	.	16e\LL	.	16e\LL
.	5	.	.	.	.	.	.	.	.	.	.	.	16e\JJ	.	16e\J
.	.	.	32ee\JJk	.	32ccc#\JJk	.	.	.	.	.	.	.	.	.	.
8G#X\	.	.	16.b\LL	.	16.dd\LL	.	8G#X\L	-se-	8B\L	-se-	4e\	-se-	8e\L	.	8e\
.	.	.	32dd\JJk	.	32bb\JJk	.	.	.	.	.	.	.	.	.	.
8A\J	.	.	16.a\LL	.	16.cc#\LL	.	8A\J	.	8A\J	.	.	.	8e\J	.	8e\J
.	.	.	32cc#\JJk	.	32aa\JJk	.	.	.	.	.	.	.	.	.	.
8E\L	#_	.	16g#X\LL	.	16.b\LL	.	8E\L	-re-	(8.G#X/L	-re-	4.e\	-re-	4e\	.	4e\
.	X	.	16b\J	.	.	.	.	.	.	.	.	.	.	.	.
.	.	.	.	.	32gg#X\JJk	.	.	.	.	.	.	.	.	.	.
.	.	.	.	.	(<8qqaa/	.	.	.	.	.	.	.	.	.	.
8D\	6	.	8b\J	.	8.gg#m\L)	.	8D\J	.	.	.	.	.	.	.	.
.	.	.	.	.	.	.	.	.	32A/LL	.	.	.	.	.	.
.	.	.	.	.	.	.	.	.	32B/JJJ)	.	.	.	.	.	.
8C#\	.	.	8cc#\L	.	.	.	8C#/L	-re	8A\	.	.	.	8r	.	8r
.	.	.	.	.	(32ff#\LL	.	.	.	.	.	.	.	.	.	.
.	.	.	.	.	32gg#\JJJ)	.	.	.	.	.	.	.	.	.	.
8D\J	.	.	8b\J	.	16aa\LL|	.	8D/J	.	8B\	-re	8f#\	-re	8f#\	.	8a\
*	*	*	*	*	*	*	*	*	*	*	*	*Xij	*	*	*
.	.	.	.	.	16ddn\JJ	.	.	.	.	.	.	.	.	.	.
=10	=10	=10	=10	=10	=10	=10	=10	=10	=10	=10	=10	=10	=10	=10	=10
*	*	*	*	*	*	*	*	*	*	*	*2\right	*	*	*	*
4E\	6 4	.	4a/	.	4cc#m\	.	(<4E\	no-	4A/	no-	2e\	no-	4e\	.	4a\
4EE/	5 #	.	4g#Xm/	.	4b\	.	4EE/)	.	4G#X/	.	.	.	4eM\	.	4g#Xm\
!LO:TX:t=P:problem=mixed beam	!	!	!	!	!	!	!	!	!	!	!	!	!	!	!
8AA/L	.	.	16.a\LL	.	16.a\LL	.	4AA/	-bis	4A/	-bis	4e\	-bis	4e\	.	4a\
.	.	.	32a\JJk	.	32a\JJk	.	.	.	.	.	.	.	.	.	.
8A\	.	.	16.cc#\LL	.	16.cc#\LL	.	.	.	.	.	.	.	.	.	.
!	!	!	!	!	!LO:TX:t=P:problem=znak łamania systemu	!	!	!	!	!	!	!	!	!	!
.	.	.	32ee\JJk	.	32ee\JJk	.	.	.	.	.	.	.	.	.	.
!	!	!	!	!	!LO:LB:g=original	!	!	!	!	!	!	!	!	!	!
8D\	6	.	16.ff#\LL	.	16.ff#\LL	.	4r	.	4r	.	4r	.	4r	.	4r
.	.	.	32dd\JJk	.	32dd\JJk	.	.	.	.	.	.	.	.	.	.
8E\J	#	.	16.b\LL	.	16.b/LL	.	.	.	.	.	.	.	.	.	.
.	.	.	32g#X\JJk	.	32g#X/JJk	.	.	.	.	.	.	.	.	.	.
!	!	!	!	!	!	!	!	!	!	!	!LO:LB:g=originalUJ	!	!	!	!
=11	=11	=11	=11	=11	=11	=11	=11	=11	=11	=11	=11	=11	=11	=11	=11
!LO:TX:t=P:problem=mixed beam	!	!	!	!	!	!	!	!	!	!	!	!	!	!	!
8AA/L	.	.	16.a/LL	.	16.a/LL	.	8AA/	A-	8c#\	a-	8a\	a-	8A/L	.	8e\L
.	.	.	32A/JJk	.	32A/JJk	.	.	.	.	.	.	.	.	.	.
8A\	.	.	16.c#/LL	.	16.c#/LL	.	8A\	-gnus	8c#\	-gn(us)	8a\	-gn(us)	8A/	.	8e\
.	.	.	32e/JJk	.	32e/JJk	.	.	.	.	.	.	.	.	.	.
8D\	.	.	16.f#/LL	.	16.f#/LL	.	8D\L	De-	8B\L	De-	8f#\L	De-	8d/	.	8f#\
.	.	.	32d/JJk	.	32d/JJk	.	.	.	.	.	.	.	.	.	.
!	!	!	!	!	!	!	!	!	!	!	!	!	!	!	!LO:TX:t=P:problem=znak łamania systemu
8E\J	#	.	16.B/LL	.	16.B/LL	.	8E\J	.	8G#X\J	.	8d\J	.	8d/J	.	8g#X\J
!	!	!	!LO:TX:t=P:problem=znak łamania systemu	!	!LO:SIC:v:s=32.G#/JJk	!	!	!	!	!	!	!	!	!	!
.	.	.	32G#X/JJk	.	32G/JJk	.	.	.	.	.	.	.	.	.	.
!LO:TX:t=P:problem=mixed beam	!	!LO:LB:g=original	!	!	!	!	!	!	!	!	!	!	!	!LO:LB:g=original	!
8AA/L	.	.	16.A/LL	.	16.A/LL	.	8AA/	-i	8A\	-i	8e\	-i	4A/	.	4a\
.	.	.	32e/JJk	.	32a/JJk	.	.	.	.	.	.	.	.	.	.
8A\	.	.	16.a/LL	.	16.cc#\LL	.	8A\	qui	8c#\	qui	8a\	qui	.	.	.
.	.	.	32cc#/JJk	.	32ee\JJk	.	.	.	.	.	.	.	.	.	.
.	.	.	.	.	8qqee/	.	.	.	.	.	.	.	.	.	.
8E\	7 #	.	8b/L	.	8dd\L	.	8E\	tol-	8B\	tol-	8g#X\	tol-	4r	.	4r
8AA/J	.	.	8a/J	.	8cc#\J	.	8AA/	-lis	8A\	-lis	8e\	-lis	.	.	.
!	!	!	!	!	!	!	!	!	!LO:LB:g=original	!	!	!	!LO:LB:g=original	!	!
=12	=12	=12	=12	=12	=12	=12	=12	=12	=12	=12	=12	=12	=12	=12	=12
!LO:TX:t=P:problem=mixed beam	!	!	!	!	!	!	!	!	!	!	!	!	!	!	!
8A\L	.	.	16.r	.	16.r	.	8r	.	8r	.	8r	.	8A/L	.	8e\L
.	.	.	32e/KLL	.	32a\KLL	.	.	.	.	.	.	.	.	.	.
*	*	*	*	*	*	*	*	*	*	*ij	*	*ij	*	*	*
8AA/	.	.	16.a/	.	16.cc#\	.	8AA/	pec-	8c#\	qui	8a\	qui	8A/J	.	8e\J
.	.	.	32cc#/JJk	.	32ee\JJk	.	.	.	.	.	.	.	.	.	.
8C#/	6 5n	.	8ee\L	.	(8ggn\L	.	8C#/	-ca-	8e\	tol-	8a\	tol-	8A\L	.	8e\L
!	!	!	!	!	!	!	!LO:TX:t=P:problem=znak łamania systemu	!	!	!	!	!	!	!	!
8D/J	.	.	8ddM\J	.	8ff#\J)	.	8D/	-ta	8d\	-lis	8a\	-lis	16.d\L	.	16.f#\L
*	*	*	*	*	*	*	*	*ij	*	*Xij	*	*Xij	*	*	*
.	.	.	.	.	.	.	.	.	.	.	.	.	32e\JJk	.	32gn\JJk
!	!	!	!	!	!	!	!LO:LB:g=original	!	!	!	!	!	!	!	!
8F#\L	6	.	(16.ddd\LL	.	(16.ddd\LL	.	8r	.	8r	.	8r	.	8d\	.	8a\
.	.	.	32ccc#\JJk)	.	32ccc#\JJk)	.	.	.	.	.	.	.	.	.	.
!	!	!	!	!	!	!	!LO:SIC:v:s=8F#	!	!	!	!	!	!	!	!
8F#\	.	.	(16.bb\LL	.	(16.bb\LL	.	8E\	pec-	8d\	pec-	8a\	pec-	8r	.	8r
.	.	.	32aa\JJk)	.	32aa\JJk)	.	.	.	.	.	.	.	.	.	.
!	!	!	!	!	!	!	!	!	!	!	!LO:SIC:v:s=8b	!	!	!	!
8G\	.	.	(32bb\KLL	.	(32bb\KLL	.	8G\	-ca-	8B\	-ca-	8a\	-ca-	8d\	.	8b\
.	.	.	16.gg\JJ)	.	16.gg\JJ)	.	.	.	.	.	.	.	.	.	.
8G\J	.	.	(32ee\KLL	.	(32ee\KLL	.	8G\	-ta	8e\	-ta	8b\	-ta	8r	.	8r
*	*	*	*	*	*	*	*	*Xij	*	*	*	*	*	*	*
.	.	.	16.dd\JJ)	.	16.dd\JJ)	.	.	.	.	.	.	.	.	.	.
=13	=13	=13	=13	=13	=13	=13	=13	=13	=13	=13	=13	=13	=13	=13	=13
!LO:TX:t=P:problem=mixed beam	!	!	!LO:TX:t=P:problem=klamra łukowa	!	!LO:TX:t=P:problem=klamra łukowa	!	!	!	!	!	!	!	!	!	!
8.A\L	.	.	24cc#\LL	.	24cc#\LL	.	8A\	mun-	8e\	mun-	8a\	mun-	8A/L	.	8e\L
.	.	.	24dd\	.	24dd\	.	.	.	.	.	.	.	.	.	.
.	.	.	24ee\JJ	.	24ee\JJ	.	.	.	.	.	.	.	.	.	.
.	.	.	8a/	.	8a/	.	8A\	-di	8e\	-di	8a\	-di	8A/J	.	8e\J
16AA/Jk	.	.	.	.	.	.	.	.	.	.	.	.	.	.	.
!	!	!	!	!	!LO:TX:t=P:problem=znak łamania systemu	!	!	!	!	!	!	!	!	!	!
16A\LL	.	.	4r	.	4r	.	4r	.	4r	.	4r	.	4r	.	4r
16G\	.	.	.	.	.	.	.	.	.	.	.	.	.	.	.
16F#\	.	.	.	.	.	.	.	.	.	.	.	.	.	.	.
!LO:TX:t=P:problem=znak łamania systemu	!	!	!	!	!	!	!	!	!	!	!	!	!	!	!
16E\JJ	.	.	.	.	.	.	.	.	.	.	.	.	.	.	.
!	!	!	!LO:TX:t=P:problem=mixed beam	!	!LO:LB:g=original	!	!	!	!	!	!	!	!	!	!
!LO:LB:g=original	!	!	!	!	!LO:TX:t=P:problem=mixed beam	!	!	!	!	!	!	!	!	!	!
8D\L	.	.	16.d/LL	.	16.d/LL	.	8D\	a-	8d\	a-	8f#\	a-	8f#\L	.	8a\L
.	.	.	32dd\JJk	.	32dd\JJk	.	.	.	.	.	.	.	.	.	.
8D\	.	.	16.ff#\LL	.	16.ff#\LL	.	8D\	-gnus	8d\	-gnus	8f#\	-gn(us)	8f#\	.	8a\
.	.	.	32aa\JJk	.	32aa\JJk	.	.	.	.	.	.	.	.	.	.
8G\	.	.	(32bb\KLL	.	16.bb\LL	.	8G\L	De-	(8B\L	De-	8gn\L	De-	8g\	.	8b\
.	.	.	16.gg\JJ)	.	.	.	.	.	.	.	.	.	.	.	.
.	.	.	.	.	32gg\JJk	.	.	.	.	.	.	.	.	.	.
8A\J	.	.	(32ee\KLL	.	16.ee\LL	.	8A\J	.	8A\J)	.	8e\J	.	8e\J	.	8cc#\J
.	.	.	16.cc#\JJ)	.	.	.	.	.	.	.	.	.	.	.	.
.	.	.	.	.	32cc#\JJk	.	.	.	.	.	.	.	.	.	.
!	!	!	!	!	!	!	!	!	!	!	!LO:LB:g=original	!	!	!	!
=14	=14	=14	=14	=14	=14	=14	=14	=14	=14	=14	=14	=14	=14	=14	=14
!	!	!	!LO:TX:t=P:problem=mixed beam	!	!LO:TX:t=P:problem=mixed beam	!	!	!	!	!	!	!	!	!	!LO:TX:t=P:problem=takty 14-15 niejasne harmonicznie
8D\L	.	.	16.dd\LL	.	16.dd\LL	.	8D\	-i	8A\	-i	8f#\	-i	8f#\L	.	8dd\L
.	.	.	32d/JJk	.	32d/JJk	.	.	.	.	.	.	.	.	.	.
8d\	.	.	16.f#/LL	.	16.f#/LL	.	8d\	qui	8d\	qui	8f#\	qui	8f#\	.	8a\
!	!	!	!LO:TX:t=P:problem=znak łamania systemu	!	!	!	!	!	!	!	!	!	!	!	!
.	.	.	32a/JJk	.	32a/JJk	.	.	.	.	.	.	.	.	.	.
!	!	!	!LO:LB:g=original	!	!	!	!	!	!	!	!	!	!	!	!
8G\	.	.	16.b/LL	.	16.b/LL	.	8G\L	tol-	(8B\L	tol-	(8g\L	tol-	8g\	.	8b\
.	.	.	32g/JJk	.	32g/JJk	.	.	.	.	.	.	.	.	.	.
8A\J	.	.	16.e/LL	.	16.e/LL	.	8A\J	.	8A\J)	.	8e\J)	.	8e\J	.	8cc#\J
.	.	.	32c#/JJk	.	32c#/JJk	.	.	.	.	.	.	.	.	.	.
!	!	!	!	!	!LO:TX:t=P:problem=mixed beam	!	!	!	!	!	!	!	!	!	!
8D\L	6	.	8d/L	.	16.d/LL	.	8D\	-lis	8A\	-lis	8f#\	-lis	4f#\	.	4dd\
.	.	.	.	.	32dd\JJk	.	.	.	.	.	.	.	.	.	.
8F#\	5n	.	8a/	.	16.ff#\LL	.	8F#\	pec-	8d\	pec-	8a\	pec-	.	.	.
.	.	.	.	.	32aa\JJk	.	.	.	.	.	.	.	.	.	.
8F#\	.	.	8a/	.	(24cc#\LL	.	4EM\	-ca-	[4d\	-ca-	4aM\	-ca-	8r	.	8r
.	.	.	.	.	24ee\)	.	.	.	.	.	.	.	.	.	.
.	.	.	.	.	24aa\JJ|	.	.	.	.	.	.	.	.	.	.
8F#\J	.	.	8a/J	.	(24a\LL	.	.	.	.	.	.	.	16d\LL	.	16d\LL
.	.	.	.	.	24ccn\)	.	.	.	.	.	.	.	.	.	.
.	.	.	.	.	.	.	.	.	.	.	.	.	16d\JJ	.	16d\JJ
.	.	.	.	.	24aa\JJ|	.	.	.	.	.	.	.	.	.	.
!	!	!	!	!	!	!	!	!	!LO:LB:g=original	!	!	!	!	!	!
=15	=15	=15	=15	=15	=15	=15	=15	=15	=15	=15	=15	=15	=15	=15	=15
!LO:TX:t=P:problem=mixed beam	!	!	!	!	!	!	!	!	!LO:TX:t=P:problem=brak zakończenia ligatury	!	!	!	!	!	!
8G\L	.	.	8b\L	.	(16.b\LL	.	8G\	-ta	8d\]	.	(8g\	-ta	8d\	.	8d\
.	.	.	.	.	32ee\JJk)	.	.	.	.	.	.	.	.	.	.
8E\	#_	.	8b\	.	(32gg#X\KLL	.	8E\	pec-	8B\	-ta	8g#X\)	.	8r	.	8r
.	.	.	.	.	16.bb\JJ)	.	.	.	.	.	.	.	.	.	.
8G#X\	.	.	8b\	.	(24dd#X\LL	.	4G#Xm\	-ca-	4e\	mun-	4b\	mun-	8r	.	8r
.	.	.	.	.	24ee\)	.	.	.	.	.	.	.	.	.	.
.	.	.	.	.	24bb\JJ|	.	.	.	.	.	.	.	.	.	.
8AA/J	X	.	8g#X\J	.	(24b\LL	.	.	.	.	.	.	.	16e\LL	.	16e\LL
.	.	.	.	.	24ddn\)	.	.	.	.	.	.	.	.	.	.
.	.	.	.	.	.	.	.	.	.	.	.	.	16e\JJ	.	16e\JJ
.	.	.	.	.	24bb\JJ|	.	.	.	.	.	.	.	.	.	.
!	!	!	!	!	!LO:TX:t=P:problem=nie wiadomo czy przednutka, czy krzyżyk	!	!	!	!	!	!	!	!	!	!
.	.	.	.	.	8qqdd/	.	.	.	.	.	.	.	.	.	.
8A\L	.	.	16.e/LL	.	4cc#\	.	4A\	-ta	4e\	-di	4a\	-di	8e\	.	8e\
.	.	.	32a/JJk	.	.	.	.	.	.	.	.	.	.	.	.
8A\	.	.	16.cc#\LL	.	.	.	.	.	.	.	.	.	8r	.	8r
.	.	.	32ee\JJk	.	.	.	.	.	.	.	.	.	.	.	.
8d\	.	.	8ffn\L	.	16.r	.	8d\	.	4d\	qui	4a\	qui	4r	.	4r
!	!	!	!	!	!LO:LB:g=original	!LO:DY:b:t=pianiſsimo	!	!	!	!	!	!	!	!	!
.	.	.	.	.	32dd\KLL	pp	.	.	.	.	.	.	.	.	.
8d\J	.	.	8ff\J	.	16.ffn\	.	8d\	qui	.	.	.	.	.	.	.
.	.	.	.	.	32aa\JJk	.	.	.	.	.	.	.	.	.	.
!	!	!	!	!	!	!	!LO:LB:g=original	!	!	!	!	!	!LO:LB:g=original	!	!
=16	=16	=16	=16	=16	=16	=16	=16	=16	=16	=16	=16	=16	=16	=16	=16
!	!	!	!	!	!	!	!	!	!	!	!	!	!LO:TX:a:t=2	!	!LO:TX:a:t=2
8G\L	7n 6	.	16.ff#\LL	.	8bb\L	.	4G\	tol-	4d\	tol-	4b\	tol-	0r	.	0r
.	.	.	32b\JJk	.	.	.	.	.	.	.	.	.	.	.	.
8G\	.	.	16.dd\LL	.	8bb\J	.	.	.	.	.	.	.	.	.	.
.	.	.	32ff#\JJk	.	.	.	.	.	.	.	.	.	.	.	.
8cn\	-7	.	8ee\L	.	16bb\LL	.	8cn\	-lis	8cn\	-lis	8b\	-lis	.	.	.
.	.	.	.	.	16ee\	.	.	.	.	.	.	.	.	.	.
8c\J	.	.	8ee\J	.	32gg\K	.	8c\	pec-	8c\	pec-	8b\	pec-	.	.	.
.	.	.	.	.	16.bb\JJ	.	.	.	.	.	.	.	.	.	.
8Fn\L	7	.	16.ee\LL	.	8aa\L	.	4Fn\	-ca-	4c\	-ca-	4a\	-ca-	.	.	.
.	.	.	32a\JJk	.	.	.	.	.	.	.	.	.	.	.	.
8F\	.	.	16.ccn\LL	.	8aa\J	.	.	.	.	.	.	.	.	.	.
.	.	.	32ee\JJk	.	.	.	.	.	.	.	.	.	.	.	.
!LO:SIC:v:s=8B-	!	!	!	!	!	!	!	!	!	!	!	!	!	!	!
8c-X\	7-	.	8dd\L	.	16.aa\LL	.	4B-X\	-ta	4B-X\	-ta	4a\	-ta	.	.	.
.	.	.	.	.	32dd\JJk	.	.	.	.	.	.	.	.	.	.
!LO:SIC:v:s=8B-	!	!	!	!	!	!	!	!	!	!	!	!	!	!	!
8B\J	.	.	8dd\J	.	16.ffn\LL	.	.	.	.	.	.	.	.	.	.
.	.	.	.	.	32aa\JJk	.	.	.	.	.	.	.	.	.	.
=17	=17	=17	=17	=17	=17	=17	=17	=17	=17	=17	=17	=17	=17	=17	=17
8E\L	7	.	16.dd\LL	.	8gg\L	.	4E\	mun-	4B-X\	mun-	4g\	mun-	.	.	.
.	.	.	32g\JJk	.	.	.	.	.	.	.	.	.	.	.	.
8E\	.	.	16.b\LL	.	8gg\J	.	.	.	.	.	.	.	.	.	.
.	.	.	32dd\JJk	.	.	.	.	.	.	.	.	.	.	.	.
8A\	7 #	.	8cc#X\L	.	16.gg\LL	.	4A\	-di	4A\	-di	4g\	-di	.	.	.
.	.	.	.	.	32dd#X\JJk	.	.	.	.	.	.	.	.	.	.
8A\J	.	.	8cc#\J	.	16.ee\LL	.	.	.	.	.	.	.	.	.	.
.	.	.	.	.	32gg\JJk	.	.	.	.	.	.	.	.	.	.
8D\L	-	.	16.dd\LL	.	(32ffn\KLL	.	4D\	mi-	4A\	mi-	4fn\	mi-	.	.	.
!	!	!	!	!	!LO:SIC:v:s=16.ddn	!	!	!	!	!	!	!	!	!	!
.	.	.	.	.	16.dd#\JJ)	.	.	.	.	.	.	.	.	.	.
.	.	.	32a\JJk	.	.	.	.	.	.	.	.	.	.	.	.
8D\	.	.	16.dd\LL	.	16.ff\LL	.	.	.	.	.	.	.	.	.	.
!	!	!	!LO:SIC:v:s=32ffn	!	!	!	!	!	!	!	!	!	!	!	!
.	.	.	32ff#\JJk	.	32aa\JJk	.	.	.	.	.	.	.	.	.	.
!	!	!	!LO:SIC:v:s=8fn	!	!LO:TX:t=P:problem=mixed beam	!	!	!	!	!	!	!	!	!	!
8G#X\	4n	.	8f#/L	.	16.ddd\LL	.	4G#X\	-se-	4Bn\	-se-	4f\	-se-	.	.	.
.	.	.	.	.	32d/JJk	.	.	.	.	.	.	.	.	.	.
!	!	!	!LO:SIC:v:s=8f	!	!	!	!	!	!	!	!	!	!	!	!
8G#\J	.	.	8f#/J	.	16.bn\LL	.	.	.	.	.	.	.	.	.	.
!	!	!	!	!	!LO:SIC:v:s=32.dd	!	!	!	!	!	!	!	!	!	!
.	.	.	.	.	32dd#\JJk	.	.	.	.	.	.	.	.	.	.
!LO:LB:g=original	!	!	!LO:LB:g=original	!	!	!	!	!	!	!	!LO:LB:g=original	!	!	!	!LO:PB:g=original
=18	=18	=18	=18	=18	=18	=18	=18	=18	=18	=18	=18	=18	=18	=18	=18
8A\L	3	.	16.e/LL	.	16.cc#X\LL	.	8A\L	-re-	4A\	-re-	4e\	-re-	8r	.	8r
.	.	.	32a/JJk	.	32a\JJk	.	.	.	.	.	.	.	.	.	.
8Gn\	.	.	16.cc#\LL	.	16.aa\LL	.	8Gn\J	.	.	.	.	.	16.A/LL	.	16.e\LL
.	.	.	32ee\JJk	.	32cc#\JJk	.	.	.	.	.	.	.	32A/JJk	.	32e\JJk
!	!	!	!LO:TX:t=P:problem=mixed beam	!	!LO:TX:t=P:problem=mixed beam	!	!	!	!	!	!	!	!	!	!
8F#\	6	.	16dd\KL	.	16.dd\LL	.	8F#\L	-re	8A\L	-re	(8a\L	-re	8A/L	.	16f#\KL
.	.	.	8d/	.	.	.	.	.	.	.	.	.	.	.	8d\
.	.	.	.	.	32d/JJk	.	.	.	.	.	.	.	.	.	.
8G\J	.	.	.	.	16.bn/LL	.	8G\J	.	8Bn\J	.	8g\J)	.	8d/J	.	.
.	.	.	16e/Jk	.	.	.	.	.	.	.	.	.	.	.	16g\Jk
.	.	.	.	.	32g/JJk	.	.	.	.	.	.	.	.	.	.
!LO:TX:t=P:problem=mixed beam	!	!	!	!	!	!	!	!	!	!	!	!	!	!	!
*	*	*	*	*	*	*	*2\right	*	*	*	*	*	*	*	*
!	!	!	!	!	!LO:LB:g=original	!	!	!	!	!	!	!	!	!	!
8A\L	6 4	.	4d/	.	4f#/	.	2AM\	no-	2A/	no-	(4f#\	no-	4d\	.	4f#\
8A\	.	.	.	.	.	.	.	.	.	.	.	.	.	.	.
8AA/	5 3	.	4c#m/	.	4eM/	.	.	.	.	.	4e\)	.	4A/	.	4eM\
8AA/J	.	.	.	.	.	.	.	.	.	.	.	.	.	.	.
=19	=19	=19	=19	=19	=19	=19	=19	=19	=19	=19	=19	=19	=19	=19	=19
4D\	.	.	4d/	.	4d/	.	4D/	-bis	4A/	-bis	4f#\	-bis	4F#/	.	4d\
8d\L	.	.	16.r	.	16.r	.	4r	.	4r	.	4r	.	8r	.	8r
.	.	.	32a\KLL	.	32dd\KLL	.	.	.	.	.	.	.	.	.	.
8D\J	.	.	16.dd\	.	16.ff#\	.	.	.	.	.	.	.	8f#\	p	8a\
.	.	.	32ff#\JJk	.	32aa\JJk	.	.	.	.	.	.	.	.	.	.
.	.	.	(<16qqff#/	.	8qqaa/	.	.	.	.	.	.	.	(<16qqf#/	.	8qqa/
8A\L	7	.	8ee\L)	.	8gg\L	.	2r	.	2r	.	2r	.	()8e\L	.	(8g\L
8D\J	.	.	8dd\J	.	8ff#\J	.	.	.	.	.	.	.	8d\J)	.	8f#\J)
!LO:TX:t=P:problem=mixed beam	!	!LO:DY:a:t=pp&colon;	!	!	!	!	!	!	!	!	!	!	!	!	!
8D\L	.	pp	16.r	.	16.r	.	.	.	.	.	.	.	8r	pp	8r
.	.	.	32A/KLL	.	32d/KLL	.	.	.	.	.	.	.	.	.	.
8DD/J	.	.	16.d/	.	16.f#/	.	.	.	.	.	.	.	8f#\	.	8dd\
.	.	.	32f#/JJk	.	32a/JJk	.	.	.	.	.	.	.	.	.	.
=20	=20	=20	=20	=20	=20	=20	=20	=20	=20	=20	=20	=20	=20	=20	=20
!	!	!	!	!	!	!	!	!	!LO:TX:a:t=1	!	!	!	!	!	!
.	.	.	8qqf#/	.	8qqa/	.	.	.	.	.	.	.	(<16qqf#/	.	(<8qqdd/
8AA/L	7	.	8eM/L	.	8gM/L	.	1r	.	1r	.	1r	.	8e\L)	.	8cc#\L)
8DD/J	.	.	8d/J	.	8f#/J	.	.	.	.	.	.	.	8f#\J	.	8dd\J
4r	.	.	4r	.	4r	.	.	.	.	.	.	.	4r	.	4r
2r	.	.	2r	.	2r	.	.	.	.	.	.	.	2r	.	2r
!LO:LB:g=original	!	!	!LO:LB:g=original	!	!LO:LB:g=original	!	!	!	!LO:LB:g=original	!	!	!	!	!	!
=21||	=21||	=21||	=21||	=21||	=21||	=21||	=21||	=21||	=21||	=21||	=21||	=21||	=21||	=21||	=21||
*M2/4	*	*	*M2/4	*	*M2/4	*	*M2/4	*	*M2/4	*	*M2/4	*	*M2/4	*	*M2/4
!LO:TX:b:t=Agnus\n2dum	!	!	!	!	!	!	!	!	!	!	!	!	!	!	!
!LO:TX:a:i:t=Solo	!	!	!	!	!	!	!	!	!	!	!	!	!	!	!
!LO:TX:a:i:t=allegretto	!	!	!LO:TX:a:t=Solo	!	!LO:TX:a:t=Solo Lente	!	!LO:TX:a:t=Agnus \nTacet	!	!LO:TX:a:t=Agnus 2dum\nTacet	!	!LO:TX:a:t=Solo	!	!LO:TX:a:t=Agnus Dei \nTacet	!	!LO:TX:a:t=Tacet \nagnus
8BB/L	.	.	4b\	.	4b\	.	2ryy	.	2ryy	.	0r	.	2ryy	.	2ryy
8D/	.	.	.	.	.	.	.	.	.	.	.	.	.	.	.
8E/	.	.	(32dd\KLL	.	(32dd\KLL	.	.	.	.	.	.	.	.	.	.
.	.	.	16.cc#\JJ)	.	16.cc#\JJ)	.	.	.	.	.	.	.	.	.	.
8F#/J	.	.	(32b\KLL	.	(32b\KLL	.	.	.	.	.	.	.	.	.	.
.	.	.	16.a#X\JJ)	.	16.a#X\JJ)	.	.	.	.	.	.	.	.	.	.
=22	=22	=22	=22	=22	=22	=22	=22	=22	=22	=22	=22	=22	=22	=22	=22
8G\L	.	.	8b\L	.	8b\L	.	2ryy	.	2ryy	.	.	.	2ryy	.	2ryy
8E\	5	.	(32bb\KL	.	(32bb\KL	.	.	.	.	.	.	.	.	.	.
.	.	.	16.gg\JJ)	.	16.gg\JJ)	.	.	.	.	.	.	.	.	.	.
8D\	6	.	8ff#\L	.	8ff#\L	.	.	.	.	.	.	.	.	.	.
8C#\J	7	.	(32bb\KL	.	(32bb\KL	.	.	.	.	.	.	.	.	.	.
.	.	.	16.ee\JJ)	.	16.ee\JJ)	.	.	.	.	.	.	.	.	.	.
=23	=23	=23	=23	=23	=23	=23	=23	=23	=23	=23	=23	=23	=23	=23	=23
8BB/L	.	.	(32ee\KLL	.	(32ee\KLL	.	2ryy	.	2ryy	.	.	.	2ryy	.	2ryy
.	.	.	16.dd\JJ)	.	16.dd\JJ)	.	.	.	.	.	.	.	.	.	.
8D/	.	.	(32ff#\KLL	.	(32ff#\KLL	.	.	.	.	.	.	.	.	.	.
.	.	.	16.b\JJ)	.	16.b\JJ)	.	.	.	.	.	.	.	.	.	.
8E/	.	.	(32dd\KLL	.	(32dd\KLL	.	.	.	.	.	.	.	.	.	.
.	.	.	16.cc#\JJ)	.	16.cc#\JJ)	.	.	.	.	.	.	.	.	.	.
8F#/J	.	.	(32ee\KLL	.	(32ee\KLL	.	.	.	.	.	.	.	.	.	.
.	.	.	16.a#X\JJ)	.	16.a#X\JJ)	.	.	.	.	.	.	.	.	.	.
=24	=24	=24	=24	=24	=24	=24	=24	=24	=24	=24	=24	=24	=24	=24	=24
!LO:TX:t=P:problem=mixed beam	!	!	!	!	!	!	!	!	!	!	!	!	!	!	!
8BB/L	.	.	8b/	.	8b/	.	2ryy	.	2ryy	.	.	.	2ryy	.	2ryy
8B\	.	.	4f#/	.	4f#/	.	.	.	.	.	.	.	.	.	.
8d\	.	.	.	.	.	.	.	.	.	.	.	.	.	.	.
8B\J	.	.	(32dd\KLL	.	(32dd\KLL	.	.	.	.	.	.	.	.	.	.
.	.	.	16.b\JJ)	.	16.b\JJ)	.	.	.	.	.	.	.	.	.	.
=25	=25	=25	=25	=25	=25	=25	=25	=25	=25	=25	=25	=25	=25	=25	=25
8r	.	.	8cc#\	.	8cc#\	.	2ryy	.	2ryy	.	0r	.	2ryy	.	2ryy
8A#X\L	.	.	4f#/	.	4f#/	.	.	.	.	.	.	.	.	.	.
8F#\	.	.	.	.	.	.	.	.	.	.	.	.	.	.	.
8A#\J	.	.	(32ee\KLL	.	(32ee\KLL	.	.	.	.	.	.	.	.	.	.
.	.	.	16.cc#\JJ)	.	16.cc#\JJ)	.	.	.	.	.	.	.	.	.	.
!LO:LB:g=original	!	!	!	!	!	!	!	!	!	!	!	!	!	!	!
=26	=26	=26	=26	=26	=26	=26	=26	=26	=26	=26	=26	=26	=26	=26	=26
8B\L	.	.	(16.dd\LL	.	16.dd\LL	.	2ryy	.	2ryy	.	.	.	2ryy	.	2ryy
.	.	.	32ff#\JK)	.	32ff#\JK	.	.	.	.	.	.	.	.	.	.
8D\	6	.	8ff#m\J	.	8ff#m\J	.	.	.	.	.	.	.	.	.	.
*	*	*	*Xtuplet	*	*Xtuplet	*	*	*	*	*	*	*	*	*	*
!	!	!	!LO:TX:t=P:problem=klamra łukowa	!	!	!	!	!	!	!	!	!	!	!	!
8E\	.	.	24gg\LL	.	24gg\LL	.	.	.	.	.	.	.	.	.	.
.	.	.	24ff#\	.	24ff#\	.	.	.	.	.	.	.	.	.	.
.	.	.	24ee\JJ	.	24ee\JJ	.	.	.	.	.	.	.	.	.	.
!	!	!	!	!	!LO:TX:t=P:problem=klamra łukowa	!	!	!	!	!	!	!	!	!	!
8E#X\J	7	.	24dd\LL	.	24dd\LL	.	.	.	.	.	.	.	.	.	.
.	.	.	24cc#\	.	24cc#\	.	.	.	.	.	.	.	.	.	.
.	.	.	24b\JJ	.	24b\JJ	.	.	.	.	.	.	.	.	.	.
!	!	!	!LO:PB:g=original	!	!LO:LB:g=original	!	!	!	!	!	!	!	!	!	!
=27	=27	=27	=27	=27	=27	=27	=27	=27	=27	=27	=27	=27	=27	=27	=27
.	.	.	(<8qqb/	.	(<8qqb/	.	.	.	.	.	.	.	.	.	.
8F#\L	#	.	4a#X/)	.	4a#X/)	.	2ryy	.	2ryy	.	.	.	2ryy	.	2ryy
16F#\L	.	.	.	.	.	.	.	.	.	.	.	.	.	.	.
16Gn\JJ	.	.	.	.	.	.	.	.	.	.	.	.	.	.	.
16F#\LL	.	.	4r	.	8r	.	.	.	.	.	.	.	.	.	.
16E\	.	.	.	.	.	.	.	.	.	.	.	.	.	.	.
16D\	.	.	.	.	8ff#\	.	.	.	.	.	.	.	.	.	.
16C#\JJ	.	.	.	.	.	.	.	.	.	.	.	.	.	.	.
=28	=28	=28	=28	=28	=28	=28	=28	=28	=28	=28	=28	=28	=28	=28	=28
8BB/L	.	.	4r	.	(32ff#\KLL	.	2ryy	.	2ryy	.	.	.	2ryy	.	2ryy
.	.	.	.	.	16.dd\JJ)	.	.	.	.	.	.	.	.	.	.
8BB/	.	.	.	.	(32cc#\KLL	.	.	.	.	.	.	.	.	.	.
.	.	.	.	.	16.b\JJ)	.	.	.	.	.	.	.	.	.	.
8D#X/	6	.	8r	.	8aa\L	.	.	.	.	.	.	.	.	.	.
8D#/J	.	.	8b/	.	8aa\J	.	.	.	.	.	.	.	.	.	.
=29	=29	=29	=29	=29	=29	=29	=29	=29	=29	=29	=29	=29	=29	=29	=29
.	.	.	.	.	8qqaa/	.	.	.	.	.	.	.	.	.	.
8E\L	.	.	(32b/KLL	.	4gg\	.	2ryy	.	2ryy	.	0r	.	2ryy	.	2ryy
.	.	.	16.g/JJ)	.	.	.	.	.	.	.	.	.	.	.	.
8E\	.	.	(32f#/KLL	.	.	.	.	.	.	.	.	.	.	.	.
.	.	.	16.e/JJ)	.	.	.	.	.	.	.	.	.	.	.	.
8G\	6 5	.	8ddM\L	.	8r	.	.	.	.	.	.	.	.	.	.
8G\J	.	.	8dd\J	.	8ee\	.	.	.	.	.	.	.	.	.	.
=30	=30	=30	=30	=30	=30	=30	=30	=30	=30	=30	=30	=30	=30	=30	=30
!LO:TX:t=P:problem=mixed beam	!	!	!	!	!	!	!	!	!	!	!	!	!	!	!
.	.	.	8qqdd/	.	.	.	.	.	.	.	.	.	.	.	.
8A\L	.	.	4cc#\	.	(32ee\KLL	.	2ryy	.	2ryy	.	.	.	2ryy	.	2ryy
.	.	.	.	.	16.cc#\JJ)	.	.	.	.	.	.	.	.	.	.
8A\	.	.	.	.	(32b\KLL	.	.	.	.	.	.	.	.	.	.
.	.	.	.	.	16.a\JJ)	.	.	.	.	.	.	.	.	.	.
8C#/	6 5	.	8r	.	8gg\L	.	.	.	.	.	.	.	.	.	.
8C#/J	.	.	8ee\	.	8gg\J	.	.	.	.	.	.	.	.	.	.
=31	=31	=31	=31	=31	=31	=31	=31	=31	=31	=31	=31	=31	=31	=31	=31
!	!	!	!	!	!LO:TX:t=P:problem=niezgodność pionów rytmicznych pomiędzy vn1 a vn2	!	!	!	!	!	!	!	!	!	!
8D\L	.	.	8ff#\L	.	8.ff#m\L	.	2ryy	.	2ryy	.	.	.	2ryy	.	2ryy
16E\L	.	.	(16gg'\L	.	.	.	.	.	.	.	.	.	.	.	.
16F#\JJ	.	.	16ff#'\JJ	.	(32ee\LL	.	.	.	.	.	.	.	.	.	.
.	.	.	.	.	32ff#\JJJ)	.	.	.	.	.	.	.	.	.	.
8G\L	.	.	16ee'\LL	.	(16gg\LL	.	.	.	.	.	.	.	.	.	.
.	.	.	16dd'\	.	16ff#\JJ	.	.	.	.	.	.	.	.	.	.
!	!	!	!LO:N:vis=16	!	!LO:N:vis=16	!	!	!	!	!	!	!	!	!	!
8E\J	.	.	16cc#'\	.	32ee\LLL	.	.	.	.	.	.	.	.	.	.
!	!	!	!	!	!LO:N:vis=16	!	!	!	!	!	!	!	!	!	!
.	.	.	.	.	32dd\	.	.	.	.	.	.	.	.	.	.
!	!	!	!LO:N:vis=16	!	!LO:N:vis=16	!	!	!	!	!	!	!	!	!	!
.	.	.	16b'\JJ)	.	32cc#\	.	.	.	.	.	.	.	.	.	.
!	!	!	!	!	!LO:N:vis=16	!	!	!	!	!	!	!	!	!	!
.	.	.	.	.	32b\JJJ)	.	.	.	.	.	.	.	.	.	.
!LO:LB:g=original	!	!	!	!	!	!	!	!	!	!	!	!	!	!	!
=32	=32	=32	=32	=32	=32	=32	=32	=32	=32	=32	=32	=32	=32	=32	=32
!	!	!	!	!	!LO:TX:t=P:problem=mixed beam	!	!	!	!	!	!	!	!	!	!
8F#\L	#	.	8a#X\L	.	8a#X/L	.	2ryy	.	2ryy	.	.	.	2ryy	.	2ryy
8A#X\	6 5 #	.	8cc#\J	.	8ee\J	.	.	.	.	.	.	.	.	.	.
8B\	.	.	8r	.	8r	.	.	.	.	.	.	.	.	.	.
8E#X\J	7 #	.	8b\	.	8dd\	.	.	.	.	.	.	.	.	.	.
!	!	!	!	!	!LO:LB:g=original	!	!	!	!	!	!	!	!	!	!
=33	=33	=33	=33	=33	=33	=33	=33	=33	=33	=33	=33	=33	=33	=33	=33
4F#\	#	.	8r	.	8r	.	2ryy	.	2ryy	.	0r	.	2ryy	.	2ryy
!	!	!	!	!LO:DY:a:t=pia	!	!	!	!	!	!	!	!	!	!	!
.	.	.	8a#X/L	p	8cc#\	.	.	.	.	.	.	.	.	.	.
4r	.	.	(8g#X/	.	(8ee#X\L	.	.	.	.	.	.	.	.	.	.
.	.	.	8a#X/J)	.	8ff#\J)	.	.	.	.	.	.	.	.	.	.
!	!	!	!LO:LB:g=original	!	!	!	!	!	!	!	!	!	!	!	!
=34	=34	=34	=34	=34	=34	=34	=34	=34	=34	=34	=34	=34	=34	=34	=34
!	!	!	!LO:TX:t=P:problem=mixed beam	!LO:DY:t=for	!LO:TX:t=P:problem=mixed beam	!	!	!	!	!	!	!	!	!	!
8r	.	.	8f#/L	f	8f#/L	.	2ryy	.	2ryy	.	.	.	2ryy	.	2ryy
8A#X\L	6 5	.	8cc#\J	.	8ee\J	.	.	.	.	.	.	.	.	.	.
8B\	3	.	8r	.	8r	.	.	.	.	.	.	.	.	.	.
8E#X\J	7	.	8b\	.	8dd\	.	.	.	.	.	.	.	.	.	.
=35	=35	=35	=35	=35	=35	=35	=35	=35	=35	=35	=35	=35	=35	=35	=35
8F#\L	#_	.	16r	.	16.r	.	2ryy	.	2ryy	.	.	.	2ryy	.	2ryy
!	!	!	!	!LO:DY:t=pia	!	!	!	!	!	!	!	!	!	!	!
.	.	.	16a#X\LL	p	.	.	.	.	.	.	.	.	.	.	.
.	.	.	.	.	32cc#\KLL	.	.	.	.	.	.	.	.	.	.
8En\	.	.	16aa#X\	.	16.aa#X\	.	.	.	.	.	.	.	.	.	.
.	.	.	16aa#\JJ	.	.	.	.	.	.	.	.	.	.	.	.
.	X	.	.	.	32aa#\JJk	.	.	.	.	.	.	.	.	.	.
8D\	6	.	8bb\L	.	8bb\L	.	.	.	.	.	.	.	.	.	.
8C#\J	6|	.	8ee\J	.	8ee\J	.	.	.	.	.	.	.	.	.	.
=36	=36	=36	=36	=36	=36	=36	=36	=36	=36	=36	=36	=36	=36	=36	=36
!	!	!	!	!LO:DY:t=for	!	!	!	!	!	!	!	!	!	!	!
8BB/L	.	.	32ddM\LLL	f	(32dd\LLL	.	2ryy	.	2ryy	.	.	.	2ryy	.	2ryy
.	.	.	(32cc#\JJ	.	32cc#\JJ	.	.	.	.	.	.	.	.	.	.
.	.	.	8.b\J)	.	8.b\J)	.	.	.	.	.	.	.	.	.	.
8D/	.	.	.	.	.	.	.	.	.	.	.	.	.	.	.
8E/	6	.	4cc#m\	.	4cc#m\	.	.	.	.	.	.	.	.	.	.
8F#/J	#	.	.	.	.	.	.	.	.	.	.	.	.	.	.
=37	=37	=37	=37	=37	=37	=37	=37	=37	=37	=37	=37	=37	=37	=37	=37
!LO:TX:t=P:problem=mixed beam	!	!LO:DY:a:t=pia	!	!	!	!	!	!	!	!	!	!	!	!	!
8FF#/L	.	p	16r	.	16.r	.	2ryy	.	2ryy	.	1r	.	2ryy	.	2ryy
!	!	!	!	!LO:DY:t=pia	!	!	!	!	!	!	!	!	!	!	!
.	.	.	16a#X\LL	p	.	.	.	.	.	.	.	.	.	.	.
.	.	.	.	.	32cc#\KLL	.	.	.	.	.	.	.	.	.	.
(16F#\L	.	.	16aa#X\	.	16.aa#X\	.	.	.	.	.	.	.	.	.	.
16E\JJ)	.	.	16aa#\JJ	.	.	.	.	.	.	.	.	.	.	.	.
.	.	.	.	.	32aa#m\JJk	.	.	.	.	.	.	.	.	.	.
8D/L	6	.	8bb\L	.	8bb\L	.	.	.	.	.	.	.	.	.	.
8C#/J	6|	.	8ee\J	.	8ee\J	.	.	.	.	.	.	.	.	.	.
=38	=38	=38	=38	=38	=38	=38	=38	=38	=38	=38	=38	=38	=38	=38	=38
8BB/L	.	.	(32dd\LLL	.	(32dd\LLL	.	2ryy	.	2ryy	.	.	.	2ryy	.	2ryy
.	.	.	32cc#\JJ	.	32cc#\JJ	.	.	.	.	.	.	.	.	.	.
.	.	.	8.b\J)	.	8.b\J)	.	.	.	.	.	.	.	.	.	.
8D/	6	.	.	.	.	.	.	.	.	.	.	.	.	.	.
8E/	6	.	4cc#m\	.	4cc#m\	.	.	.	.	.	.	.	.	.	.
8F#/J	#	.	.	.	.	.	.	.	.	.	.	.	.	.	.
=39	=39	=39	=39	=39	=39	=39	=39	=39	=39	=39	=39	=39	=39	=39	=39
!	!	!	!	!LO:DY:t=for	!	!	!	!	!	!	!	!	!	!	!
8B\L	.	.	8b/L	f	8b/L	.	2ryy	.	2ryy	.	2r	.	2ryy	.	2ryy
8F#\J	.	.	8f#/J	.	8f#/J	.	.	.	.	.	.	.	.	.	.
4BB/	.	.	4B/	.	4B/	.	.	.	.	.	.	.	.	.	.
!LO:LB:g=original	!	!	!	!	!LO:LB:g=original	!	!	!	!	!	!	!	!	!	!
=40	=40	=40	=40	=40	=40	=40	=40	=40	=40	=40	=40	=40	=40	=40	=40
!	!	!LO:DY:a:t=pia	!	!LO:DY:a:t=po	!	!LO:DY:b:t=pia	!	!	!	!	!	!	!	!	!
8BB/L	.	p	8d/L	p	4b\	p	2ryy	.	2ryy	.	4b\	A-	2ryy	.	2ryy
8D/	6	.	8f#/	.	.	.	.	.	.	.	.	.	.	.	.
8E/	#	.	8g/	.	(32dd\KLL	.	.	.	.	.	(32dd\KLL	.	.	.	.
.	.	.	.	.	16.cc#\JJ)	.	.	.	.	.	16.cc#\JJ)	.	.	.	.
8F#/J	7	.	8c#/J	.	(32b\KLL	.	.	.	.	.	(32b\KLL	-gnus	.	.	.
.	.	.	.	.	16.a#X\JJ)	.	.	.	.	.	16.a#X\JJ)	.	.	.	.
=41	=41	=41	=41	=41	=41	=41	=41	=41	=41	=41	=41	=41	=41	=41	=41
!	!	!	!LO:TX:t=P:problem=mixed beam	!	!	!	!	!	!	!	!	!	!	!	!
8BB/L	.	.	8d/L	.	8b\L	.	2ryy	.	2ryy	.	8b\L	De-	2ryy	.	2ryy
8E/	.	.	[8b\J	.	(32bb\KL	.	.	.	.	.	8g\J	.	.	.	.
.	.	.	.	.	16.gg\JJ)	.	.	.	.	.	.	.	.	.	.
8D/	6	.	8b\L]	.	8ff#\L	.	.	.	.	.	8f#\	-i	.	.	.
8C#/J	7	.	(32bb\KL	.	(32bb\KL	.	.	.	.	.	8ee\	qui	.	.	.
.	.	.	16.ee\JJ)	.	16.ee\JJ)	.	.	.	.	.	.	.	.	.	.
!	!	!	!LO:LB:g=original	!	!	!	!	!	!	!	!LO:LB:g=original	!	!	!	!
=42	=42	=42	=42	=42	=42	=42	=42	=42	=42	=42	=42	=42	=42	=42	=42
!	!	!	!LO:TX:t=P:problem=mixed beam	!	!	!	!	!	!	!	!	!	!	!	!
8BB/L	.	.	16ee\LL	.	(32ee\KLL	.	2ryy	.	2ryy	.	8dd\	tol-	2ryy	.	2ryy
.	.	.	.	.	16.dd\)	.	.	.	.	.	.	.	.	.	.
.	.	.	16dd\J	.	.	.	.	.	.	.	.	.	.	.	.
8D/	.	.	8f#/J	.	(32ff#\K	.	.	.	.	.	16cc#\LL	-lis	.	.	.
.	.	.	.	.	16.b\JJ)	.	.	.	.	.	.	.	.	.	.
.	.	.	.	.	.	.	.	.	.	.	16b\JJ	.	.	.	.
8E/	.	.	8g/L	.	(32dd\KLL	.	.	.	.	.	8cc#\	.	.	.	.
.	.	.	.	.	16.cc#\)	.	.	.	.	.	.	.	.	.	.
8F#/J	.	.	8c#/J	.	(32ee\K	.	.	.	.	.	8a#X\	pec-	.	.	.
.	.	.	.	.	16.a#X\JJ)	.	.	.	.	.	.	.	.	.	.
=43	=43	=43	=43	=43	=43	=43	=43	=43	=43	=43	=43	=43	=43	=43	=43
!LO:TX:t=P:problem=mixed beam	!	!	!	!	!	!	!	!	!	!	!	!	!	!	!
8BB/L	.	.	8d/L|	.	8b\	.	2ryy	.	2ryy	.	8b\	-ca-	2ryy	.	2ryy
(8B\	.	.	8d/|	.	4f#/	.	.	.	.	.	4f#\	.	.	.	.
8A#X\	.	.	(8c#/	.	.	.	.	.	.	.	.	.	.	.	.
8B\J)	.	.	8d/J)	.	(32dd\KLL	.	.	.	.	.	16dd\LL	.	.	.	.
.	.	.	.	.	16.b\JJ)	.	.	.	.	.	.	.	.	.	.
.	.	.	.	.	.	.	.	.	.	.	16b\JJ	.	.	.	.
=44	=44	=44	=44	=44	=44	=44	=44	=44	=44	=44	=44	=44	=44	=44	=44
8r	.	.	8r	.	8cc#\	.	2ryy	.	2ryy	.	8cc#\	.	2ryy	.	2ryy
(8A#X\L	6	.	(8c#/L	.	4f#/	.	.	.	.	.	4f#\	.	.	.	.
8G#X\	.	.	8B/	.	.	.	.	.	.	.	.	.	.	.	.
8A#\J)	.	.	8c#/J)	.	(32ee\KLL	.	.	.	.	.	8e\	.	.	.	.
.	.	.	.	.	16.cc#\JJ)	.	.	.	.	.	.	.	.	.	.
=45	=45	=45	=45	=45	=45	=45	=45	=45	=45	=45	=45	=45	=45	=45	=45
4B\	.	.	8r	.	16.dd\LL	.	2ryy	.	2ryy	.	(16d\LL	.	2ryy	.	2ryy
.	.	.	.	.	.	.	.	.	.	.	16f#\JJ)	.	.	.	.
.	.	.	.	.	32ff#\JK	.	.	.	.	.	.	.	.	.	.
.	.	.	8d/L	.	8ff#m\J	.	.	.	.	.	(16b\LL	-ta	.	.	.
.	.	.	.	.	.	.	.	.	.	.	16dd\JJ)	.	.	.	.
!	!	!	!	!	!LO:TX:t=P:problem=klamra łukowa	!	!	!	!	!	!	!	!	!	!
4E\	6 5	.	8B/	.	24gg\LL	.	.	.	.	.	8cc#\L	mun-	.	.	.
.	.	.	.	.	24ff#\	.	.	.	.	.	.	.	.	.	.
.	.	.	.	.	24ee\JJ	.	.	.	.	.	.	.	.	.	.
!	!	!	!	!	!LO:TX:t=P:problem=klamra łukowa	!	!	!	!	!	!	!	!	!	!
.	.	.	8g/J	.	24dd\LL	.	.	.	.	.	8b\J	.	.	.	.
.	.	.	.	.	24cc#\	.	.	.	.	.	.	.	.	.	.
.	.	.	.	.	24b\JJ	.	.	.	.	.	.	.	.	.	.
=46	=46	=46	=46	=46	=46	=46	=46	=46	=46	=46	=46	=46	=46	=46	=46
.	.	.	.	.	(<8qqb/	.	.	.	.	.	(<8qqb/	.	.	.	.
8F#\L	#	.	4c#/	.	4a#X/)	.	2ryy	.	2ryy	.	4a#X\)	-di	2ryy	.	2ryy
16F#\L	.	.	.	.	.	.	.	.	.	.	.	.	.	.	.
16Gn\JJ	.	.	.	.	.	.	.	.	.	.	.	.	.	.	.
8F#\L	.	.	4r	.	4r	.	.	.	.	.	4r	.	.	.	.
8E\J	.	.	.	.	.	.	.	.	.	.	.	.	.	.	.
=47	=47	=47	=47	=47	=47	=47	=47	=47	=47	=47	=47	=47	=47	=47	=47
.	.	.	.	.	(<16qqbb/	.	.	.	.	.	.	.	.	.	.
4D\	5	.	8.ff#m\L	.	8.aaM\L)	.	2ryy	.	2ryy	.	8.an\	mi-	2ryy	.	2ryy
!	!	!	!	!	!	!	!	!	!	!	!LO:N:vis=16	!	!	!	!
.	.	.	(32ee\LL	.	(32gg\LL	.	.	.	.	.	32g\LLL	.	.	.	.
!	!	!	!	!	!	!	!	!	!	!	!LO:N:vis=16	!	!	!	!
.	.	.	32ff#\JJJ)	.	32aa\JJJ)	.	.	.	.	.	32a\JJJ	.	.	.	.
4DD/	.	.	8gg\L	.	8bb\L	.	.	.	.	.	8b\	.	.	.	.
.	.	.	8ff#\J	.	8aa\J	.	.	.	.	.	8a\	-se-	.	.	.
!LO:LB:g=original	!	!	!	!	!	!	!	!	!	!	!LO:LB:g=original	!	!	!	!
=48	=48	=48	=48	=48	=48	=48	=48	=48	=48	=48	=48	=48	=48	=48	=48
!LO:TX:t=P:problem=mixed beam	!	!	!	!	!	!	!	!	!	!	!	!	!	!	!
8AA/L	.	.	8ee\	.	8gg\	.	2ryy	.	2ryy	.	8g\	-re-	2ryy	.	2ryy
8A\	.	.	4cc#\	.	4ee\	.	.	.	.	.	4e\	.	.	.	.
8AA/	5	.	.	.	.	.	.	.	.	.	.	.	.	.	.
8A\J	4	.	8dd\	.	8ff#\	.	.	.	.	.	8f#\	.	.	.	.
=49	=49	=49	=49	=49	=49	=49	=49	=49	=49	=49	=49	=49	=49	=49	=49
!LO:TX:t=P:problem=mixed beam	!	!	!	!	!	!	!	!	!	!	!	!	!	!	!
8AA/L	5	.	8.eeM\L	.	8.ggM\L	.	2ryy	.	2ryy	.	8.gM\L	.	2ryy	.	2ryy
8A\	.	.	.	.	.	.	.	.	.	.	.	.	.	.	.
.	.	.	(32dd\LL	.	(32ff#\LL	.	.	.	.	.	(32f#\LL	.	.	.	.
.	.	.	32ee\JJJ)	.	32gg\JJJ)	.	.	.	.	.	32g\JJJ)	.	.	.	.
8AA/	.	.	8ff#\L	.	8aa\L	.	.	.	.	.	8a\L	.	.	.	.
8A\J	.	.	8ee\J	.	8gg\J	.	.	.	.	.	8g\J	.	.	.	.
=50	=50	=50	=50	=50	=50	=50	=50	=50	=50	=50	=50	=50	=50	=50	=50
!	!	!	!LO:TX:t=P:problem=mixed beam	!	!LO:TX:t=P:problem=mixed beam	!	!	!	!	!	!	!	!	!	!
4D\	.	.	8dd\L	.	8ff#\L	.	2ryy	.	2ryy	.	8f#\L	.	2ryy	.	2ryy
.	.	.	8f#/	.	8a/	.	.	.	.	.	8a\	.	.	.	.
8r	.	.	8g/	.	8b/	.	.	.	.	.	8b\	.	.	.	.
!LO:SIC:v:s=8F#	!	!	!	!	!	!	!	!	!	!	!	!	!	!	!
8G\	5n	.	8a/J	.	8ccn/J	.	.	.	.	.	8ccn\J	.	.	.	.
=51	=51	=51	=51	=51	=51	=51	=51	=51	=51	=51	=51	=51	=51	=51	=51
8G\L	.	.	8g/	.	8b\	.	2ryy	.	2ryy	.	8b\	.	2ryy	.	2ryy
8E\	#_	.	4g#X/	.	4b\	.	.	.	.	.	4b\	.	.	.	.
8G#X\	.	.	.	.	.	.	.	.	.	.	.	.	.	.	.
8E\J	.	.	16a/LL	.	16cc#X\LL	.	.	.	.	.	16cc#X\LL	.	.	.	.
.	X	.	16b/JJ	.	16dd\JJ	.	.	.	.	.	16dd\JJ	.	.	.	.
!	!	!	!LO:LB:g=original	!	!	!	!	!	!	!	!	!	!	!	!
=52	=52	=52	=52	=52	=52	=52	=52	=52	=52	=52	=52	=52	=52	=52	=52
4A\	.	.	8a/L	.	8cc#\L|	.	2ryy	.	2ryy	.	8cc#X\L	.	2ryy	.	2ryy
.	.	.	8gn/	.	8b\|	.	.	.	.	.	8b\	.	.	.	.
4r	.	.	8f#/	.	8a\|	.	.	.	.	.	8a\	.	.	.	.
.	.	.	8e/J	.	8g\J|	.	.	.	.	.	8g\J	.	.	.	.
=53	=53	=53	=53	=53	=53	=53	=53	=53	=53	=53	=53	=53	=53	=53	=53
*	*	*	*	*	*	*	*	*	*	*	*Xtuplet	*	*	*	*
!	!	!	!LO:TX:t=P:problem=klamra łukowa	!	!LO:TX:t=P:problem=klamra łukowa	!	!	!	!	!	!LO:TX:t=P:problem=klamra łukowa	!	!	!	!
8r	.	.	24d/LL	.	24f#/LL	.	2ryy	.	2ryy	.	24f#\LL	.	2ryy	.	2ryy
.	.	.	24e/	.	24g/	.	.	.	.	.	24g\	.	.	.	.
.	.	.	24f#/JJ	.	24a/JJ	.	.	.	.	.	24a\JJ	.	.	.	.
8AA/L	7n	.	4e/	.	4g/	.	.	.	.	.	4g\	.	.	.	.
8C#/	6 5 3	.	.	.	.	.	.	.	.	.	.	.	.	.	.
8D/J	.	.	8d/	.	8f#/	.	.	.	.	.	8f#\	-re	.	.	.
!	!	!	!	!	!	!	!	!	!	!	!LO:LB:g=original	!	!	!	!
=54	=54	=54	=54	=54	=54	=54	=54	=54	=54	=54	=54	=54	=54	=54	=54
!LO:TX:t=P:problem=mixed beam	!	!	!	!	!	!	!	!	!	!	!	!	!	!	!
.	.	.	8qqe/	.	(8qqg/	.	.	.	.	.	(<8qqg/	.	.	.	.
8AA/L	6 4	.	8d/L	.	8f#/L)	.	2ryy	.	2ryy	.	8f#\)	no-	2ryy	.	2ryy
8A\	5 3	.	8c#/J	.	8e/J	.	.	.	.	.	8e\	-bis	.	.	.
8E\	.	.	4r	.	4r	.	.	.	.	.	4r	.	.	.	.
8C#\J	.	.	.	.	.	.	.	.	.	.	.	.	.	.	.
!	!	!	!	!	!LO:LB:g=original	!	!	!	!	!	!	!	!	!	!
=55	=55	=55	=55	=55	=55	=55	=55	=55	=55	=55	=55	=55	=55	=55	=55
!	!	!	!LO:TX:t=P:problem=mixed beam	!	!LO:TX:t=P:problem=nieczytelna nuta (wpisana analogicznie do t. 57)	!	!	!	!	!	!	!	!	!	!
8AA/L	7	.	8c#/L	.	8a/L	.	2ryy	.	2ryy	.	4gn\	mi-	2ryy	.	2ryy
8C#/	6 5	.	8ee\J	.	8ggn\J	.	.	.	.	.	.	.	.	.	.
8D/	3	.	8r	.	8r	.	.	.	.	.	4f#m\	-se-	.	.	.
8GG#X/J	7	.	8dd\	.	8ff#\	.	.	.	.	.	.	.	.	.	.
=56	=56	=56	=56	=56	=56	=56	=56	=56	=56	=56	=56	=56	=56	=56	=56
4AA/	.	.	8r	.	8r	.	2ryy	.	2ryy	.	(8e\L	-re-	2ryy	.	2ryy
.	.	.	8cc#\L|	.	8ee\	.	.	.	.	.	8a\J)	.	.	.	.
4r	.	.	(8b\	.	(8gg#X\L	.	.	.	.	.	(8g#X\L	-re-	.	.	.
.	.	.	8cc#\J)	.	8aa\J)	.	.	.	.	.	8a\J)	.	.	.	.
!LO:LB:g=original	!	!	!	!	!	!	!	!	!	!	!	!	!	!	!
=57	=57	=57	=57	=57	=57	=57	=57	=57	=57	=57	=57	=57	=57	=57	=57
8r	.	.	8A/L	.	8A/L	.	2ryy	.	2ryy	.	4gn\	.	2ryy	.	2ryy
8C#/L	5n	.	8e/J	.	8gn/J	.	.	.	.	.	.	.	.	.	.
8D/	3	.	8r	.	8r	.	.	.	.	.	4f#m\	.	.	.	.
8GG#X/J	7	.	8d/	.	8f#/	.	.	.	.	.	.	.	.	.	.
=58	=58	=58	=58	=58	=58	=58	=58	=58	=58	=58	=58	=58	=58	=58	=58
4AA/	.	.	4c#/	.	8e/L	.	2ryy	.	2ryy	.	8e\L	.	2ryy	.	2ryy
.	.	.	.	.	8b/J	.	.	.	.	.	8b\J	.	.	.	.
4C#/	6	.	4eM/	.	(16.a/LL	.	.	.	.	.	16a\LL	.	.	.	.
.	.	.	.	.	.	.	.	.	.	.	16g\	.	.	.	.
.	.	.	.	.	32g/JJk	.	.	.	.	.	.	.	.	.	.
.	.	.	.	.	16.f#/LL	.	.	.	.	.	16f#\	.	.	.	.
.	.	.	.	.	.	.	.	.	.	.	16e\JJ	.	.	.	.
.	.	.	.	.	32e/JJk)	.	.	.	.	.	.	.	.	.	.
=59	=59	=59	=59	=59	=59	=59	=59	=59	=59	=59	=59	=59	=59	=59	=59
!	!	!	!LO:TX:t=P:problem=mixed beam	!	!	!	!	!	!	!	!	!	!	!	!
8D\L	.	.	8A/L	.	8f#/L	.	2ryy	.	2ryy	.	8f#\L	.	2ryy	.	2ryy
8F#\	6	.	8a\J	.	(32dd/KL	.	.	.	.	.	16dd\L	.	.	.	.
.	.	.	.	.	16.a/JJ)	.	.	.	.	.	.	.	.	.	.
.	.	.	.	.	.	.	.	.	.	.	16a\JJ	.	.	.	.
!	!	!	!LO:N:vis=16	!	!	!	!	!	!	!	!	!	!	!	!
8G\	.	.	(32b\KLL	.	(32b\KLL	.	.	.	.	.	8b\L	.	.	.	.
!	!	!	!LO:N:vis=32.	!	!	!	!	!	!	!	!	!	!	!	!
.	.	.	16.bb\JJ)	.	16.bb\JJ)	.	.	.	.	.	.	.	.	.	.
8E\J	.	.	(32gg\KLL	.	(32gg\KLL	.	.	.	.	.	16g\L	.	.	.	.
.	.	.	16.ee\JJ)	.	16.ee\JJ)	.	.	.	.	.	.	.	.	.	.
.	.	.	.	.	.	.	.	.	.	.	16e\JJ	-re	.	.	.
=60	=60	=60	=60	=60	=60	=60	=60	=60	=60	=60	=60	=60	=60	=60	=60
4A\	6 4	.	4dd\	.	4dd\	.	2ryy	.	2ryy	.	4d\	no-	2ryy	.	2ryy
.	5 3	.	.	.	.	.	.	.	.	.	.	.	.	.	.
4AA/	.	.	4cc#m\	.	4eeM\	.	.	.	.	.	4eM\	.	.	.	.
!	!	!	!LO:LB:g=original	!	!	!	!	!	!	!	!	!	!	!	!
=61	=61	=61	=61	=61	=61	=61	=61	=61	=61	=61	=61	=61	=61	=61	=61
!	!	!LO:DY:a:t=for	!	!LO:DY:t=for	!	!LO:DY:b:t=for	!	!	!	!	!	!	!	!	!
8D\L	.	f	4dd\	f	4dd\	f	2ryy	.	2ryy	.	4d\	-bis	2ryy	.	2ryy
8F#\	6	.	.	.	.	.	.	.	.	.	.	.	.	.	.
8G\	7	.	(32ff#\KLL	.	(32ff#\KLL	.	.	.	.	.	4r	.	.	.	.
.	.	.	16.ee\JJ)	.	16.ee\JJ)	.	.	.	.	.	.	.	.	.	.
8A\J	7	.	(32dd\KLL	.	(32dd\KLL	.	.	.	.	.	.	.	.	.	.
.	.	.	16.cc#\JJ)	.	16.cc#\JJ)	.	.	.	.	.	.	.	.	.	.
!	!	!	!	!	!LO:LB:g=original	!	!	!	!	!	!LO:LB:g=original	!	!	!	!
=62	=62	=62	=62	=62	=62	=62	=62	=62	=62	=62	=62	=62	=62	=62	=62
8B\L	.	.	8dd\L	.	8dd\L	.	2ryy	.	2ryy	.	0r	.	2ryy	.	2ryy
8G\	.	.	(32ddd\KL	.	(32ddd\KL	.	.	.	.	.	.	.	.	.	.
.	.	.	16.bb\JJ)	.	16.bb\JJ)	.	.	.	.	.	.	.	.	.	.
8F#\	6	.	8aa\L	.	8aa\L	.	.	.	.	.	.	.	.	.	.
8E\J	7	.	(32ddd\KL	.	(32ddd\KL	.	.	.	.	.	.	.	.	.	.
.	.	.	16.gg\JJ)	.	16.gg\JJ)	.	.	.	.	.	.	.	.	.	.
=63	=63	=63	=63	=63	=63	=63	=63	=63	=63	=63	=63	=63	=63	=63	=63
8D\L	.	.	(32gg\KLL	.	(32gg\KLL	.	2ryy	.	2ryy	.	.	.	2ryy	.	2ryy
.	.	.	16.ff#\JJ)	.	16.ff#\JJ)	.	.	.	.	.	.	.	.	.	.
8F#\	.	.	(32aa\KLL	.	(32aa\KLL	.	.	.	.	.	.	.	.	.	.
.	.	.	16.dd\JJ)	.	16.dd\JJ)	.	.	.	.	.	.	.	.	.	.
8G\	.	.	(32ff#\KLL	.	(32ff#\KLL	.	.	.	.	.	.	.	.	.	.
.	.	.	16.ee\JJ)	.	16.ee\JJ)	.	.	.	.	.	.	.	.	.	.
8A\J	.	.	(32gg\KLL	.	(32gg\KLL	.	.	.	.	.	.	.	.	.	.
.	.	.	16.cc#\JJ)	.	16.cc#\JJ)	.	.	.	.	.	.	.	.	.	.
=64	=64	=64	=64	=64	=64	=64	=64	=64	=64	=64	=64	=64	=64	=64	=64
8D\L	.	.	8dd\	.	8dd\	.	2ryy	.	2ryy	.	.	.	2ryy	.	2ryy
8D\	.	.	4a/	.	4a/	.	.	.	.	.	.	.	.	.	.
8D\	.	.	.	.	.	.	.	.	.	.	.	.	.	.	.
8D\J	.	.	(32ff#\KLL	.	(32ff#\KLL	.	.	.	.	.	.	.	.	.	.
.	.	.	16.dd\JJ)	.	16.dd\JJ)	.	.	.	.	.	.	.	.	.	.
=65	=65	=65	=65	=65	=65	=65	=65	=65	=65	=65	=65	=65	=65	=65	=65
8C#/L	.	.	8ee\	.	8ee\	.	2ryy	.	2ryy	.	.	.	2ryy	.	2ryy
8C#/	.	.	4a/	.	4a/	.	.	.	.	.	.	.	.	.	.
8C#/	.	.	.	.	.	.	.	.	.	.	.	.	.	.	.
8C#/J	.	.	(32gg\KLL	.	(32gg\KLL	.	.	.	.	.	.	.	.	.	.
.	.	.	16.ee\JJ)	.	16.ee\JJ)	.	.	.	.	.	.	.	.	.	.
!LO:LB:g=original	!	!	!	!	!	!	!	!	!	!	!	!	!	!	!
=66	=66	=66	=66	=66	=66	=66	=66	=66	=66	=66	=66	=66	=66	=66	=66
4D\	.	.	8ff#\L	.	8ff#\L	.	2ryy	.	2ryy	.	0r	.	2ryy	.	2ryy
.	.	.	8ff#\J	.	8ddd\J	.	.	.	.	.	.	.	.	.	.
4F#\	5-	.	8r	.	8r	.	.	.	.	.	.	.	.	.	.
.	.	.	8aa\	.	8cccn\	.	.	.	.	.	.	.	.	.	.
!	!	!	!LO:LB:g=original	!	!	!	!	!	!	!	!	!	!	!	!
=67	=67	=67	=67	=67	=67	=67	=67	=67	=67	=67	=67	=67	=67	=67	=67
4G\	.	.	8r	.	8r	.	2ryy	.	2ryy	.	.	.	2ryy	.	2ryy
.	.	.	8dd\	.	8bb\	.	.	.	.	.	.	.	.	.	.
4C#/	6	.	(8ee\L	.	16aa\LL	.	.	.	.	.	.	.	.	.	.
.	.	.	.	.	16gg\	.	.	.	.	.	.	.	.	.	.
.	.	.	8a\J)	.	16ff#\	.	.	.	.	.	.	.	.	.	.
.	.	.	.	.	16ee\JJ	.	.	.	.	.	.	.	.	.	.
=68	=68	=68	=68	=68	=68	=68	=68	=68	=68	=68	=68	=68	=68	=68	=68
!	!	!	!	!LO:DY:t=pia	!	!	!	!	!	!	!	!	!	!	!
4D\	.	.	8a\L	p	8ff#\L	.	2ryy	.	2ryy	.	.	.	2ryy	.	2ryy
.	.	.	8ff#\J	.	8ddd\J	.	.	.	.	.	.	.	.	.	.
4F#\	5-	.	8r	.	8r	.	.	.	.	.	.	.	.	.	.
.	.	.	8aa\	.	8cccn\	.	.	.	.	.	.	.	.	.	.
!	!	!	!	!	!LO:LB:g=original	!	!	!	!	!	!	!	!	!	!
=69	=69	=69	=69	=69	=69	=69	=69	=69	=69	=69	=69	=69	=69	=69	=69
4G\	.	.	8r	.	8r	.	2ryy	.	2ryy	.	.	.	2ryy	.	2ryy
.	.	.	8dd\	.	8bb\	.	.	.	.	.	.	.	.	.	.
4C#/	6	.	8ee\L	.	16aa\LL	.	.	.	.	.	.	.	.	.	.
.	.	.	.	.	16gg\	.	.	.	.	.	.	.	.	.	.
.	.	.	8a\J	.	16ff#\	.	.	.	.	.	.	.	.	.	.
.	.	.	.	.	16ee\JJ	.	.	.	.	.	.	.	.	.	.
=70	=70	=70	=70	=70	=70	=70	=70	=70	=70	=70	=70	=70	=70	=70	=70
8D\L	.	.	8r	.	8.dd\L	.	2ryy	.	2ryy	.	1r	.	2ryy	.	2ryy
!	!	!	!	!LO:DY:a:t=for	!	!	!	!	!	!	!	!	!	!	!
8F#\	6	.	8a\L	f	.	.	.	.	.	.	.	.	.	.	.
.	.	.	.	.	16a\Jk	.	.	.	.	.	.	.	.	.	.
8G\	6 5	.	8b\	.	4eeM\	.	.	.	.	.	.	.	.	.	.
8A\J	.	.	8cc#\J	.	.	.	.	.	.	.	.	.	.	.	.
=71	=71	=71	=71	=71	=71	=71	=71	=71	=71	=71	=71	=71	=71	=71	=71
8D/L	.	.	8dd\L	.	8dd\L	.	2ryy	.	2ryy	.	.	.	2ryy	.	2ryy
8AA/J	.	.	8a\J	.	8a\J	.	.	.	.	.	.	.	.	.	.
4DD/	.	.	4d/	.	4d/	.	.	.	.	.	.	.	.	.	.
=72	=72	=72	=72	=72	=72	=72	=72	=72	=72	=72	=72	=72	=72	=72	=72
!	!	!LO:DY:a:t=pia	!LO:SIC:v:s=8dd#	!LO:DY:t=pia	!	!LO:DY:a:t=pia	!	!	!	!	!	!	!	!	!
8BB/L	.	p	8dd\L	p	8ff#\L	p	2ryy	.	2ryy	.	4f#\	A-	2ryy	.	2ryy
!	!	!	!LO:SIC:v:s=8dd#	!	!	!	!	!	!	!	!	!	!	!	!
8BB/	.	.	8dd\	.	8ff#\	.	.	.	.	.	.	.	.	.	.
!	!	!	!LO:SIC:v:s=8dd#	!	!	!	!	!	!	!	!	!	!	!	!
8BB/	.	.	8dd\	.	8ff#\	.	.	.	.	.	(32a\KLL	.	.	.	.
.	.	.	.	.	.	.	.	.	.	.	16.g\JJ)	.	.	.	.
!	!	!	!LO:SIC:v:s=8dd#	!	!	!	!	!	!	!	!	!	!	!	!
8BB/J	.	.	8dd\J	.	8ff#\J	.	.	.	.	.	(32f#\KLL	-gnus	.	.	.
.	.	.	.	.	.	.	.	.	.	.	16.e\JJ)	.	.	.	.
=73	=73	=73	=73	=73	=73	=73	=73	=73	=73	=73	=73	=73	=73	=73	=73
!	!	!	!LO:SIC:v:s=4dd#	!	!	!	!	!	!	!	!	!	!	!	!
4BB/	#	.	4dd\	.	4ff#\	.	2ryy	.	2ryy	.	8d#X\L	de-	2ryy	.	2ryy
.	.	.	.	.	.	.	.	.	.	.	8f#\J	.	.	.	.
8r	.	.	8r	.	8r	.	.	.	.	.	8a\	-i	.	.	.
8E\	5n	.	8gg\	.	8cccn\	.	.	.	.	.	8bn\	qui	.	.	.
=74	=74	=74	=74	=74	=74	=74	=74	=74	=74	=74	=74	=74	=74	=74	=74
8D#X\L	6	.	8ff#\L	.	8bb\	.	2ryy	.	2ryy	.	8b\	tol-	2ryy	.	2ryy
8D#\	.	.	8ff#\	.	4bb\	.	.	.	.	.	16f#\	-lis	.	.	.
.	.	.	.	.	.	.	.	.	.	.	16g\	pec-	.	.	.
!	!	!	!	!	!	!	!	!	!	!	!LO:TX:t=P:problem=przednutka niewyraźna	!	!	!	!
.	.	.	.	.	.	.	.	.	.	.	(<8qqb/	.	.	.	.
8D#\	.	.	8ff#\	.	.	.	.	.	.	.	8a\)	-ca-	.	.	.
8D#\J	.	.	8b\J	.	8aa\	.	.	.	.	.	(16g\LL	-ta	.	.	.
.	.	.	.	.	.	.	.	.	.	.	16f#\JJ)	.	.	.	.
=75	=75	=75	=75	=75	=75	=75	=75	=75	=75	=75	=75	=75	=75	=75	=75
8E\L	.	.	4b\	.	16ggn\LL	.	2ryy	.	2ryy	.	16g\LL	mun-	2ryy	.	2ryy
.	.	.	.	.	16ff#\J	.	.	.	.	.	16f#\JJ	.	.	.	.
16E\L	.	.	.	.	8ee\J	.	.	.	.	.	8e\	-di	.	.	.
16F#\JJ	.	.	.	.	.	.	.	.	.	.	.	.	.	.	.
8G\L	.	.	4r	.	4r	.	.	.	.	.	4r	.	.	.	.
8F#\J	.	.	.	.	.	.	.	.	.	.	.	.	.	.	.
!LO:LB:g=original	!	!	!	!	!	!	!	!	!	!	!	!	!	!	!
=76	=76	=76	=76	=76	=76	=76	=76	=76	=76	=76	=76	=76	=76	=76	=76
!	!	!	!	!	!	!	!	!	!	!	!LO:N:vis=8	!	!	!	!
8E#X\L	6|	.	8cc#\L	.	4gg#X\	.	2ryy	.	2ryy	.	4g#X\	a-	2ryy	.	2ryy
8C#\J	#	.	8ee#X\J	.	.	.	.	.	.	.	.	.	.	.	.
!	!	!	!	!	!	!	!	!	!	!	!LO:SIC:v:s=32b	!	!	!	!
4r	.	.	(32gg#X\KLL	.	(32bb\KLL	.	.	.	.	.	(32dd\KLL	.	.	.	.
!	!	!	!	!	!LO:N:vis=16	!	!	!	!	!	!	!	!	!	!
.	.	.	16.ff#\JJ)	.	16.aa\JJ)	.	.	.	.	.	16.a\JJ)	.	.	.	.
.	.	.	(32ee#X\KLL	.	(32gg#\KLL	.	.	.	.	.	(32g#X\KLL	-gnus	.	.	.
.	.	.	16.dd#X\JJ)	.	16.ff#\JJ)	.	.	.	.	.	16.f#\JJ)	.	.	.	.
!	!	!	!LO:LB:g=original	!	!	!	!	!	!	!	!LO:LB:g=original	!	!	!	!
=77	=77	=77	=77	=77	=77	=77	=77	=77	=77	=77	=77	=77	=77	=77	=77
4r	.	.	(8cc#\L	.	(8ee#X\L	.	2ryy	.	2ryy	.	8e#\L	De-	2ryy	.	2ryy
.	.	.	8ee#X\	.	8gg#X\	.	.	.	.	.	8g#X\J	.	.	.	.
8r	.	.	8gg#X\)	.	8bb\	.	.	.	.	.	8b\	-i	.	.	.
8F#\	6	.	8aa\J|	.	8ddd\J)	.	.	.	.	.	8dd\	qui	.	.	.
!	!	!	!	!	!LO:LB:g=original	!	!	!	!	!	!	!	!	!	!
=78	=78	=78	=78	=78	=78	=78	=78	=78	=78	=78	=78	=78	=78	=78	=78
8E#X\L	6|	.	8gg#X\L	.	8ccc#\	.	2ryy	.	2ryy	.	8cc#\	tol-	2ryy	.	2ryy
8E#\	.	.	8gg#\	.	4ccc#\	.	.	.	.	.	16g#X\	-lis	.	.	.
.	.	.	.	.	.	.	.	.	.	.	16a\	pec-	.	.	.
.	.	.	.	.	.	.	.	.	.	.	(<8qqcc#/	.	.	.	.
8E#\	.	.	8gg#\	.	.	.	.	.	.	.	8b\)	-ca-	.	.	.
8E#\J	.	.	8cc#\J	.	8bb\	.	.	.	.	.	(16a\LL	-ta	.	.	.
.	.	.	.	.	.	.	.	.	.	.	16g#X\JJ)	.	.	.	.
=79	=79	=79	=79	=79	=79	=79	=79	=79	=79	=79	=79	=79	=79	=79	=79
8F#\L	.	.	4cc#\	.	(16aan\LL	.	2ryy	.	2ryy	.	16a\LL	mun-	2ryy	.	2ryy
.	.	.	.	.	16gg#X\J	.	.	.	.	.	16g#X\JJ	.	.	.	.
16F#\L	.	.	.	.	8ff#\J)	.	.	.	.	.	8f#\	-di	.	.	.
16G#X\JJ	.	.	.	.	.	.	.	.	.	.	.	.	.	.	.
8A#X\L	.	.	4r	.	4r	.	.	.	.	.	4r	.	.	.	.
8G#\J	.	.	.	.	.	.	.	.	.	.	.	.	.	.	.
=80	=80	=80	=80	=80	=80	=80	=80	=80	=80	=80	=80	=80	=80	=80	=80
8F#\L	#_	.	8r	.	8aa#X\	.	2ryy	.	2ryy	.	4.a#X\	mi-	2ryy	.	2ryy
8F#\	.	.	8cc#\L	.	4ff#\	.	.	.	.	.	.	.	.	.	.
8En\	.	.	8a#X\	.	.	.	.	.	.	.	.	.	.	.	.
8E\J	.	.	[<8f#\J	.	(32ccc#\KLL	.	.	.	.	.	16cc#\LL	-se-	.	.	.
!	!	!	!	!	!LO:N:vis=16	!	!	!	!	!	!	!	!	!	!
.	.	.	.	.	16.aa#X\JJ)	.	.	.	.	.	.	.	.	.	.
.	X	.	.	.	.	.	.	.	.	.	16a#\JJ	.	.	.	.
=81	=81	=81	=81	=81	=81	=81	=81	=81	=81	=81	=81	=81	=81	=81	=81
8D\L	.	.	8f#/L]	.	8bb\	.	2ryy	.	2ryy	.	4.b\	-re-	2ryy	.	2ryy
8D\	.	.	8b/	.	4ff#\	.	.	.	.	.	.	.	.	.	.
8BB\	.	.	8dd/	.	.	.	.	.	.	.	.	.	.	.	.
8BB\J	.	.	[8f#/J	.	(32ddd\KLL	.	.	.	.	.	16dd\LL	.	.	.	.
.	.	.	.	.	16.bb\JJ)	.	.	.	.	.	.	.	.	.	.
.	.	.	.	.	.	.	.	.	.	.	16b\JJ	.	.	.	.
=82	=82	=82	=82	=82	=82	=82	=82	=82	=82	=82	=82	=82	=82	=82	=82
8AA#X/L	6 5_	.	8f#/]	.	(32ccc#\KLL	.	2ryy	.	2ryy	.	8.cc#\L	.	2ryy	.	2ryy
!	!	!	!	!	!LO:N:vis=16	!	!	!	!	!	!	!	!	!	!
.	.	.	.	.	16.aa#X\JJ)	.	.	.	.	.	.	.	.	.	.
8FF#/J	.	.	4cc#\	.	4ee\	.	.	.	.	.	.	.	.	.	.
.	.	.	.	.	.	.	.	.	.	.	32dd\LL	.	.	.	.
.	.	.	.	.	.	.	.	.	.	.	32ee\JJJ	.	.	.	.
8AA#/L	x 3	.	.	.	.	.	.	.	.	.	8f#\	.	.	.	.
8BB/J	.	.	8b\	.	8dd\	.	.	.	.	.	8dd\	-re	.	.	.
!	!	!	!	!	!	!	!	!	!	!	!LO:LB:g=original	!	!	!	!
=83	=83	=83	=83	=83	=83	=83	=83	=83	=83	=83	=83	=83	=83	=83	=83
!LO:TX:t=P:problem=mixed beam	!	!	!	!	!	!	!	!	!	!	!	!	!	!	!
8F#\L	6 4	.	4b/	.	4dd\	.	2ryy	.	2ryy	.	4dd\	no-	2ryy	.	2ryy
8FF#/J	.	.	.	.	.	.	.	.	.	.	.	.	.	.	.
16F#\LL	#	.	4a#Xm/	.	4cc#m\	.	.	.	.	.	4cc#\	-bis	.	.	.
16E\	.	.	.	.	.	.	.	.	.	.	.	.	.	.	.
16D\	.	.	.	.	.	.	.	.	.	.	.	.	.	.	.
16C#\JJ	.	.	.	.	.	.	.	.	.	.	.	.	.	.	.
=84	=84	=84	=84	=84	=84	=84	=84	=84	=84	=84	=84	=84	=84	=84	=84
!	!	!	!	!	!	!LO:DY:b:rj:t=for	!	!	!	!	!	!	!	!	!
8BB/L	.	.	8d/L	.	4b\	f	2ryy	.	2ryy	.	4b\	a-	2ryy	.	2ryy
8D/	.	.	8f#/	.	.	.	.	.	.	.	.	.	.	.	.
8E/	.	.	8g/	.	(32dd\KLL	.	.	.	.	.	(32dd\KLL	.	.	.	.
!	!	!	!	!	!LO:N:vis=16	!	!	!	!	!	!	!	!	!	!
.	.	.	.	.	16.cc#\JJ)	.	.	.	.	.	16.cc#\JJ)	.	.	.	.
8F#/J	#	.	8e/J	.	(32b\KLL	.	.	.	.	.	(32b\KLL	-gnus	.	.	.
.	.	.	.	.	16.a#X\JJ)	.	.	.	.	.	16.a#X\JJ)	.	.	.	.
!LO:LB:g=original	!	!	!	!	!	!	!	!	!	!	!	!	!	!	!
=85	=85	=85	=85	=85	=85	=85	=85	=85	=85	=85	=85	=85	=85	=85	=85
8G\L	3	.	8d/	.	8b\L	.	2ryy	.	2ryy	.	8b\L	De-	2ryy	.	2ryy
8E\	5	.	4b\	.	(32bb\KL	.	.	.	.	.	8g\J	.	.	.	.
.	.	.	.	.	16.gg\JJ)	.	.	.	.	.	.	.	.	.	.
8D\	6	.	.	.	8ff#\L	.	.	.	.	.	8f#\	-i	.	.	.
8C#\J	7	.	(32bb\KLL	.	(32bb\KL	.	.	.	.	.	8ee\	qui	.	.	.
!	!	!	!LO:SIC:v:s=16.ee	!	!	!	!	!	!	!	!	!	!	!	!
.	.	.	16.ff#\JJ)	.	16.ee\JJ)	.	.	.	.	.	.	.	.	.	.
!	!	!	!	!	!LO:LB:g=original	!	!	!	!	!	!	!	!	!	!
=86	=86	=86	=86	=86	=86	=86	=86	=86	=86	=86	=86	=86	=86	=86	=86
.	.	.	.	.	.	.	.	.	.	.	(<8qqee/	.	.	.	.
8BB/L	.	.	32ee\KLL	.	(32ee\KLL	.	2ryy	.	2ryy	.	8dd\)	tol-	2ryy	.	2ryy
.	.	.	16.dd\JJ	.	16.dd\JJ)	.	.	.	.	.	.	.	.	.	.
8D/	.	.	8f#/L	.	(32ff#\KLL	.	.	.	.	.	16cc#\	-lis	.	.	.
.	.	.	.	.	16.b\JJ)	.	.	.	.	.	.	.	.	.	.
.	.	.	.	.	.	.	.	.	.	.	16b\	pec-	.	.	.
8E/	.	.	8g/	.	(32dd\KLL	.	.	.	.	.	8cc#\	-ca-	.	.	.
.	.	.	.	.	16.cc#\JJ)	.	.	.	.	.	.	.	.	.	.
8F#/J	.	.	8c#/J	.	(32ee\KLL	.	.	.	.	.	8a#X\	-ta	.	.	.
.	.	.	.	.	16.a#X\JJ)	.	.	.	.	.	.	.	.	.	.
!	!	!	!LO:LB:g=original	!	!	!	!	!	!	!	!	!	!	!	!
=87	=87	=87	=87	=87	=87	=87	=87	=87	=87	=87	=87	=87	=87	=87	=87
!	!	!	!	!	!	!	!	!	!	!	!LO:SIC:v:s=8b	!	!	!	!
8BB/L	.	.	8d/L	.	8b/	.	2ryy	.	2ryy	.	8a\	mun-	2ryy	.	2ryy
8BB/	.	.	8d/	.	4f#/	.	.	.	.	.	4f#\	-di	.	.	.
8BB/	.	.	8d/	.	.	.	.	.	.	.	.	.	.	.	.
8BB/J	.	.	8f#/J	.	(32dd\KLL	.	.	.	.	.	16dd\	mi-	.	.	.
.	.	.	.	.	16.b\JJ)	.	.	.	.	.	.	.	.	.	.
.	.	.	.	.	.	.	.	.	.	.	16b\	-se-	.	.	.
!	!	!	!	!	!	!	!	!	!	!	!LO:LB:g=original	!	!	!	!
=88	=88	=88	=88	=88	=88	=88	=88	=88	=88	=88	=88	=88	=88	=88	=88
8AA#X/L	6 5	.	8f#/L	.	8cc#\	.	2ryy	.	2ryy	.	8cc#\	-re-	2ryy	.	2ryy
8AA#/	.	.	8c#/	.	4f#/	.	.	.	.	.	4f#\	.	.	.	.
8AA#/	.	.	8c#/	.	.	.	.	.	.	.	.	.	.	.	.
8AA#/J	.	.	8f#/J	.	(32ee\KLL	.	.	.	.	.	32ee\KLL	.	.	.	.
.	.	.	.	.	16.cc#\JJ)	.	.	.	.	.	16.cc#\JJ	.	.	.	.
=89	=89	=89	=89	=89	=89	=89	=89	=89	=89	=89	=89	=89	=89	=89	=89
!LO:TX:t=P:problem=mixed beam	!	!	!	!	!	!	!	!	!	!	!	!	!	!	!
.	.	.	.	.	.	.	.	.	.	.	(<8qqee/	.	.	.	.
8BB/L	.	.	4f#/	.	8.ddM\L	.	2ryy	.	2ryy	.	8.dd\L)	.	2ryy	.	2ryy
8B\	.	.	.	.	.	.	.	.	.	.	.	.	.	.	.
.	.	.	.	.	(32cc#\LL	.	.	.	.	.	(32cc#\LL	.	.	.	.
.	.	.	.	.	32dd\JJJ)	.	.	.	.	.	32dd\JJJ)	.	.	.	.
8G\	.	.	8g/L	.	8ee\L	.	.	.	.	.	8ee\L	.	.	.	.
.	.	.	.	.	8qqdd/	.	.	.	.	.	8qqb/	.	.	.	.
8E\J	.	.	8g/J	.	8cc#\J	.	.	.	.	.	8cc#\J	.	.	.	.
=90	=90	=90	=90	=90	=90	=90	=90	=90	=90	=90	=90	=90	=90	=90	=90
.	.	.	.	.	(<8qqb/	.	.	.	.	.	(<8qqb/	.	.	.	.
8F#\L	#	.	4c#/	.	4a#X/)	.	2ryy	.	2ryy	.	4a#X\)	.	2ryy	.	2ryy
8E\	.	.	.	.	.	.	.	.	.	.	.	.	.	.	.
8D\	.	.	8f#/L	.	8b/L	.	.	.	.	.	16b\LL	.	.	.	.
.	.	.	.	.	.	.	.	.	.	.	16f#\JJ	.	.	.	.
8E\J	.	.	8g/J	.	8e/J	.	.	.	.	.	16ee\LL	-re	.	.	.
.	.	.	.	.	.	.	.	.	.	.	16cc#\JJ	.	.	.	.
=91	=91	=91	=91	=91	=91	=91	=91	=91	=91	=91	=91	=91	=91	=91	=91
4F#\	.	.	4f#/	.	4f#/	.	2ryy	.	2ryy	.	4b\	no-	2ryy	.	2ryy
4FF#/	.	.	4a#Xm/	.	4cc#m\	.	.	.	.	.	4cc#m\	.	.	.	.
=92	=92	=92	=92	=92	=92	=92	=92	=92	=92	=92	=92	=92	=92	=92	=92
8B\L	.	.	8b/L	.	4b\	.	2ryy	.	2ryy	.	4b\	-bis	2ryy	.	2ryy
8F#\J	.	.	8f#/J	.	.	.	.	.	.	.	.	.	.	.	.
8BB/	.	.	8B/	.	8r	.	.	.	.	.	4r	.	.	.	.
8r	.	.	8r	.	8ff#\	.	.	.	.	.	.	.	.	.	.
=93	=93	=93	=93	=93	=93	=93	=93	=93	=93	=93	=93	=93	=93	=93	=93
!	!	!LO:DY:a:t=for	!	!	!	!	!	!	!	!	!	!	!	!	!
8BB/L	.	f	4r	.	(32ff#\KLL	.	2ryy	.	2ryy	.	0r	.	2ryy	.	2ryy
.	.	.	.	.	16.dd\JJ)	.	.	.	.	.	.	.	.	.	.
8BB/	.	.	.	.	(32cc#\KLL	.	.	.	.	.	.	.	.	.	.
.	.	.	.	.	16.b\JJ)	.	.	.	.	.	.	.	.	.	.
8D#X/	.	.	8r	.	8aa\L	.	.	.	.	.	.	.	.	.	.
8D#/J	.	.	8b\	.	8aa\J	.	.	.	.	.	.	.	.	.	.
!LO:LB:g=original	!	!	!	!	!	!	!	!	!	!	!	!	!	!	!
=94	=94	=94	=94	=94	=94	=94	=94	=94	=94	=94	=94	=94	=94	=94	=94
.	.	.	.	.	8qqaa/	.	.	.	.	.	.	.	.	.	.
8E\L	.	.	(32b/KLL	.	4gg\	.	2ryy	.	2ryy	.	.	.	2ryy	.	2ryy
.	.	.	16.g/JJ)	.	.	.	.	.	.	.	.	.	.	.	.
8E\	.	.	(32f#/KLL	.	.	.	.	.	.	.	.	.	.	.	.
.	.	.	16.e/JJ)	.	.	.	.	.	.	.	.	.	.	.	.
8G\	6	.	8ddM\L	.	8r	.	.	.	.	.	.	.	.	.	.
8G\J	.	.	8dd\J	.	8ee\	.	.	.	.	.	.	.	.	.	.
=95	=95	=95	=95	=95	=95	=95	=95	=95	=95	=95	=95	=95	=95	=95	=95
!LO:TX:t=P:problem=mixed beam	!	!	!	!	!	!	!	!	!	!	!	!	!	!	!
.	.	.	8qqdd/	.	.	.	.	.	.	.	.	.	.	.	.
8A\L	.	.	4cc#\	.	(32ee\KLL	.	2ryy	.	2ryy	.	.	.	2ryy	.	2ryy
.	.	.	.	.	16.cc#\JJ	.	.	.	.	.	.	.	.	.	.
8A\	.	.	.	.	32b\KLL	.	.	.	.	.	.	.	.	.	.
.	.	.	.	.	16.a\JJ)	.	.	.	.	.	.	.	.	.	.
!	!	!	!	!	!LO:LB:g=original	!	!	!	!	!	!	!	!	!	!
8C#/	.	.	8r	.	8gg\L	.	.	.	.	.	.	.	.	.	.
8C#/J	.	.	8ee\	.	8gg\J	.	.	.	.	.	.	.	.	.	.
!	!	!	!LO:LB:g=original	!	!	!	!	!	!	!	!	!	!	!	!
=96	=96	=96	=96	=96	=96	=96	=96	=96	=96	=96	=96	=96	=96	=96	=96
8D\L	.	.	8ff#\L	.	8ff#\L	.	2ryy	.	2ryy	.	.	.	2ryy	.	2ryy
16E\L	.	.	(16gg'\L	.	(16gg\L	.	.	.	.	.	.	.	.	.	.
16F#\JJ	.	.	16ff#'\JJ	.	16ff#\JJ	.	.	.	.	.	.	.	.	.	.
8G\L	.	.	16ee'\LL	.	16ee\LL	.	.	.	.	.	.	.	.	.	.
.	.	.	16dd'\	.	16dd\	.	.	.	.	.	.	.	.	.	.
8E\J	.	.	16cc#'\	.	16cc#\	.	.	.	.	.	.	.	.	.	.
.	.	.	16b'\JJ)	.	16b\JJ)	.	.	.	.	.	.	.	.	.	.
=97	=97	=97	=97	=97	=97	=97	=97	=97	=97	=97	=97	=97	=97	=97	=97
8F#\L	6	.	8a#X\L	.	8a#X\L	.	2ryy	.	2ryy	.	0r	.	2ryy	.	2ryy
8A#X\	5	.	8cc#\J	.	8ee\J	.	.	.	.	.	.	.	.	.	.
8B\	7	.	8r	.	8r	.	.	.	.	.	.	.	.	.	.
8E#X\J	7 #	.	8b\	.	8dd\	.	.	.	.	.	.	.	.	.	.
=98	=98	=98	=98	=98	=98	=98	=98	=98	=98	=98	=98	=98	=98	=98	=98
!	!	!	!	!	!	!LO:DY:b:t=pia	!	!	!	!	!	!	!	!	!
4F#\	#	.	8r	.	8r	p	2ryy	.	2ryy	.	.	.	2ryy	.	2ryy
!	!	!	!	!LO:DY:a:t=pia	!	!	!	!	!	!	!	!	!	!	!
.	.	.	8a#X/L	p	8cc#\L	.	.	.	.	.	.	.	.	.	.
4r	.	.	(8g#X/	.	(8ee#X\	.	.	.	.	.	.	.	.	.	.
.	.	.	8a#X/J)	.	8ff#\J)	.	.	.	.	.	.	.	.	.	.
=99	=99	=99	=99	=99	=99	=99	=99	=99	=99	=99	=99	=99	=99	=99	=99
!	!	!	!LO:TX:t=P:problem=mixed beam	!LO:DY:t=for	!LO:TX:t=P:problem=mixed beam	!	!	!	!	!	!	!	!	!	!
8r	.	.	8d/L	f	8f#/L	.	2ryy	.	2ryy	.	.	.	2ryy	.	2ryy
8A#X\L	6 5	.	8cc#\J	.	8een\J	.	.	.	.	.	.	.	.	.	.
8B\	3	.	8r	.	8r	.	.	.	.	.	.	.	.	.	.
8E#X\J	7 #	.	8b\	.	8dd\	.	.	.	.	.	.	.	.	.	.
=100	=100	=100	=100	=100	=100	=100	=100	=100	=100	=100	=100	=100	=100	=100	=100
!LO:SIC:v:s=8F#	!	!	!	!	!	!	!	!	!	!	!	!	!	!	!
8G\L	#_	.	16r	.	16r	.	2ryy	.	2ryy	.	.	.	2ryy	.	2ryy
.	.	.	16a#X\LL	.	16cc#\LL	.	.	.	.	.	.	.	.	.	.
!	!	!	!	!LO:DY:t=pia	!	!	!	!	!	!	!	!	!	!	!
8En\	.	.	16aa#X\	p	16aa#X\	.	.	.	.	.	.	.	.	.	.
.	X	.	16aa#\JJ	.	16aa#\JJ	.	.	.	.	.	.	.	.	.	.
8D\	5	.	8bbM\L	.	8bb\L	.	.	.	.	.	.	.	.	.	.
8C#\J	#	.	8ee\J	.	8ee\J	.	.	.	.	.	.	.	.	.	.
=101	=101	=101	=101	=101	=101	=101	=101	=101	=101	=101	=101	=101	=101	=101	=101
!	!	!	!	!LO:DY:t=for	!LO:N:vis=16	!	!	!	!	!	!	!	!	!	!
8BB\L	.	.	(32dd\LLL	f	(32dd\LLL	.	2ryy	.	2ryy	.	0r	.	2ryy	.	2ryy
!	!	!	!	!	!LO:N:vis=16	!	!	!	!	!	!	!	!	!	!
.	.	.	32cc#\JJ	.	32cc#\JJ	.	.	.	.	.	.	.	.	.	.
!	!	!	!	!	!LO:N:vis=16.	!	!	!	!	!	!	!	!	!	!
.	.	.	8.b\J)	.	8.b\J)	.	.	.	.	.	.	.	.	.	.
8D\	.	.	.	.	.	.	.	.	.	.	.	.	.	.	.
.	.	.	.	.	(8qqb/	.	.	.	.	.	.	.	.	.	.
8E\	6 5	.	4cc#m\	.	4cc#m\)	.	.	.	.	.	.	.	.	.	.
8F#\J	#	.	.	.	.	.	.	.	.	.	.	.	.	.	.
=102	=102	=102	=102	=102	=102	=102	=102	=102	=102	=102	=102	=102	=102	=102	=102
!LO:TX:t=P:problem=mixed beam	!	!LO:DY:a:t=pia	!	!	!	!	!	!	!	!	!	!	!	!	!
8FF#/L	.	p	16r	.	16r	.	2ryy	.	2ryy	.	.	.	2ryy	.	2ryy
!	!	!	!	!	!LO:TX:t=P:problem=mixed beam	!	!	!	!	!	!	!	!	!	!
.	.	.	16a#X\LL	.	16f#/LL	.	.	.	.	.	.	.	.	.	.
!	!	!	!	!LO:DY:t=pia	!	!	!	!	!	!	!	!	!	!	!
16F#\L	6	.	16aa#X\	p	16aa#X\	.	.	.	.	.	.	.	.	.	.
16E\JJ	.	.	16aa#\JJ	.	16aa#\JJ	.	.	.	.	.	.	.	.	.	.
8D/L	6	.	8bb\L	.	8bb\L	.	.	.	.	.	.	.	.	.	.
8AA#X/J	5	.	8ee\J	.	8ee\J	.	.	.	.	.	.	.	.	.	.
!LO:PB:g=original	!	!	!LO:LB:g=original	!	!	!	!	!	!	!	!	!	!	!	!
=103	=103	=103	=103	=103	=103	=103	=103	=103	=103	=103	=103	=103	=103	=103	=103
!	!	!	!	!	!LO:N:vis=16	!	!	!	!	!	!	!	!	!	!
8BB\L	.	.	(32dd\LLL	.	(32dd\LLL	.	2ryy	.	2ryy	.	.	.	2ryy	.	2ryy
!	!	!	!	!	!LO:N:vis=16	!	!	!	!	!	!	!	!	!	!
.	.	.	32cc#\JJ	.	32cc#\JJ	.	.	.	.	.	.	.	.	.	.
!	!	!	!	!	!LO:N:vis=16.	!	!	!	!	!	!	!	!	!	!
.	.	.	8.b\J)	.	8.b\J)	.	.	.	.	.	.	.	.	.	.
!	!	!LO:DY:a:t=for	!	!	!	!	!	!	!	!	!	!	!	!	!
8D\	.	f	.	.	.	.	.	.	.	.	.	.	.	.	.
8E\	.	.	4cc#m\	.	4cc#m\	.	.	.	.	.	.	.	.	.	.
8F#\J	.	.	.	.	.	.	.	.	.	.	.	.	.	.	.
=104	=104	=104	=104	=104	=104	=104	=104	=104	=104	=104	=104	=104	=104	=104	=104
8B\L	.	.	8b/L	.	8b/L	.	2ryy	.	2ryy	.	.	.	2ryy	.	2ryy
8F#\J	.	.	8f#/J	.	8f#/J	.	.	.	.	.	.	.	.	.	.
4BB/	.	.	4B/;	.	4B/	.	.	.	.	.	.	.	.	.	.
!	!	!	!	!	!LO:PB:g=original	!	!LO:LB:g=original	!	!	!	!LO:PB:g=original	!	!LO:LB:g=original	!	!LO:LB:g=original
=105||	=105||	=105||	=105||	=105||	=105||	=105||	=105||	=105||	=105||	=105||	=105||	=105||	=105||	=105||	=105||
*M4/4	*	*	*M4/4	*	*M4/4	*	*M4/4	*	*M4/4	*	*M4/4	*	*M4/4	*	*M4/4
*met(c)	*	*	*met(c)	*	*met(c)	*	*met(c)	*	*met(c)	*	*met(c)	*	*met(c)	*	*met(c)
!LO:TX:b:t=Agnus\n3tium	!	!	!LO:TX:b:t=agnus Dei	!	!LO:TX:a:t=adagio	!	!	!	!	!	!	!	!	!	!
!LO:TX:a:t=adagio	!	!	!LO:TX:a:t=adagio	!	!LO:TX:a:t=Agnus \nDei	!	!LO:TX:a:t=adagio	!	!LO:TX:a:t=adagio	!	!	!	!LO:TX:a:t=Agnus Dei 3tio \nTacet	!	!LO:TX:a:t=agnus \nTacet
4B\	.	.	4f#/	.	4dd\	.	4B\	A-	4B\	A-	4f#\	A-	1ryy	.	1ryy
4A\	.	.	4f#/	.	4dd#X\	.	4A\	-gnus	4B\	-gnus	4f#\	-gnus	.	.	.
*	*	*	*	*	*	*	*	*	*2\right	*	*	*	*	*	*
4G\	.	.	4b/	.	4ee\	.	(4G\	De-	2B\	De-	(4g\	De-	.	.	.
4D#X\	6 5	.	[4b/	.	4ff#\	.	4D#X\)	.	.	.	4a\)	.	.	.	.
=106	=106	=106	=106	=106	=106	=106	=106	=106	=106	=106	=106	=106	=106	=106	=106
4E\	.	.	4b/]	.	4gg\	.	4E\	-i	4B\	-i	4g\	-i	1ryy	.	1ryy
4B\	6 4 2	.	4g#X/	.	4ee#X\	.	4B\	qui	4c#\	qui	4g#X\	qui	.	.	.
4A\	6	.	4cc#\	.	4ff#\	.	(4A\	tol-	2c#\	tol-	(4a\	tol-	.	.	.
4E#X\	6 5	.	[<4cc#\	.	4gg#X\	.	4E#X\)	.	.	.	4b\)	.	.	.	.
!LO:LB:g=original	!	!	!	!	!	!	!	!	!	!	!	!	!	!	!
=107	=107	=107	=107	=107	=107	=107	=107	=107	=107	=107	=107	=107	=107	=107	=107
4F#\	.	.	4cc#\]	.	4aa\	.	4F#\	-lis	4c#\	-lis	4a\	-lis	1ryy	.	1ryy
8A#X\L	6 3	.	(8cc#\L	.	4ff#\	.	8A#X\L	pec-	8c#\L	pec-	(8cc#\L	pec-	.	.	.
8B\J	.	.	8dd\J)	.	.	.	8B\J	.	8d\J	.	8b\J)	.	.	.	.
4c#\	6|	.	4a#X/	.	4ff#\	.	4c#\	-ca-	4e\	-ca-	4a#X\	-ca-	.	.	.
!	!	!	!	!	!	!	!LO:SIC:v:l:s=-ta	!	!	!	!	!	!	!	!
4d\	6	.	4b/	.	4ff#\	.	4d\	-t	4d\	-ta	4b\	-ta	.	.	.
!	!	!	!	!	!	!	!	!	!LO:LB:g=original	!	!	!	!	!	!
=108	=108	=108	=108	=108	=108	=108	=108	=108	=108	=108	=108	=108	=108	=108	=108
*	*	*	*^	*	*	*	*	*	*	*	*	*	*	*	*
*2\right	*	*	*2\right	*	*	*2\right	*	*	*	*	*	*	*	*	*	*
2A#X\	7n	.	2ee/	2cc#\	.	2ggn\	.	2A#X\	mun-	2e\	mun-	2cc#\	mun-	1ryy	.	1ryy
2A#X;\	.	.	2ee/	2cc#\	.	2gg;;\	.	2A#;\	-di	2e;\	-di	2cc#\	-di	.	.	.
*	*	*	*v	*v	*	*	*	*	*	*	*	*	*	*	*	*
=109	=109	=109	=109	=109	=109	=109	=109	=109	=109	=109	=109	=109	=109	=109	=109
4B\	3	.	4dd\	.	4ff#\	.	4B\	Mi-	4d\	mi-	4b\	mi-	1ryy	.	1ryy
4B\	6	.	4dd\	.	2ggn\	.	4B\	-se-	4d\	-se-	4b\	-se-	.	.	.
4A#X\	7	.	4cc#\	.	.	.	4A#X\	-re-	4e\	-re-	2cc#\	-re-	.	.	.
4An\	6	.	4cc#\	.	[<4ff#\	.	4An\	-re	4f#\	-re	.	.	.	.	.
!	!	!	!	!	!	!	!LO:LB:g=original	!	!	!	!	!	!	!	!
=110	=110	=110	=110	=110	=110	=110	=110	=110	=110	=110	=110	=110	=110	=110	=110
*	*	*	*	*	*	*	*	*ij	*	*ij	*	*	*	*	*
4G#X\	7	.	2b\	.	4ff#\]	.	4G#X\	Mi-	4B\	mi-	2b\	.	1ryy	.	1ryy
4Gn\	6	.	.	.	2ee\	.	4Gn\	-se-	4e\	-se-	.	.	.	.	.
4F#\	7 #	.	4a#X\	.	.	.	4F#\	-re-	4c#\	-re-	4a#X\	-re	.	.	.
4BB/	.	.	[<4b\	.	4dd\	.	4BB/	-re	4B\	-re	4f#\	.	.	.	.
*	*	*	*	*	*	*	*	*Xij	*	*Xij	*	*	*	*	*
!	!	!	!	!	!LO:LB:g=original	!	!	!	!	!	!LO:LB:g=original	!	!	!	!
=111	=111	=111	=111	=111	=111	=111	=111	=111	=111	=111	=111	=111	=111	=111	=111
4F#\	5 4	.	4b\]	.	2cc#m\	.	2F#\	no-	(4B\	no-	2f#\	no-	1ryy	.	1ryy
4FF#/	#	.	4a#X\	.	.	.	.	.	4A#X\)	.	.	.	.	.	.
4BB/	.	.	4b\	.	4b\	.	4BB/	-bis	4B\	-bis	4f#\	-bis	.	.	.
*	*	*	*	*	*	*	*	*	*	*ij	*	*ij	*	*	*
8B\L	.	.	4f#/	.	4dd\	.	8B\	mi-	8B\	mi-	8f#\	mi-	.	.	.
8A\J	.	.	.	.	.	.	8A\	-se-	8B\	-se-	8f#\	-se-	.	.	.
!LO:LB:g=original	!	!	!	!	!	!	!	!	!	!	!	!	!	!	!
=112	=112	=112	=112	=112	=112	=112	=112	=112	=112	=112	=112	=112	=112	=112	=112
4G\	6	.	4b/	.	4.ee\	.	4G\	-re-	4B\	-re-	4g\	-re-	1ryy	.	1ryy
4G#X\	6 5	.	4b/	.	.	.	4G#X\	-re	4B\	-re	4e\	-re	.	.	.
*	*	*	*	*	*	*	*	*	*	*	*	*Xij	*	*	*
.	.	.	.	.	8dd\	.	.	.	.	.	.	.	.	.	.
4A\	3	.	4e/	.	4cc#\	.	4A\	mi-	4An\	mi-	4e\	mi-	.	.	.
4Gn\	4 2	.	4e/	.	4cc#\	.	4Gn\	-se-	4A\	-se-	4e\	-se-	.	.	.
!	!	!	!	!	!	!	!	!	!LO:PB:g=original	!	!	!	!	!	!
=113	=113	=113	=113	=113	=113	=113	=113	=113	=113	=113	=113	=113	=113	=113	=113
4F#\	6	.	4a/	.	4dd\	.	4F#\	-re-	4A\	-re-	4f#\	-re-	1ryy	.	1ryy
4D\	.	.	4f#/	.	4dd\	.	4D\	-re	4A\	-re	4f#\	-re	.	.	.
*	*	*	*	*	*	*	*	*	*	*Xij	*	*	*	*	*
2G#X\	6 7-	.	2fnM/	.	2ddM\	.	2G#X\	no-	2B\	no-	2fn\	no-	.	.	.
=114	=114	=114	=114	=114	=114	=114	=114	=114	=114	=114	=114	=114	=114	=114	=114
!	!	!	!	!	!	!	!	!	!	!	!	!	!LO:TX:b:t=Verte Dona nobis	!	!
2A\	#	.	2e/	.	2cc#;\	.	2A\	-bis	2A/	-bis	2e;\	-bis	1ryy	.	1ryy
!	!	!	!LO:TX:b:t=Dona nobis ut [znak alla breve] allabreve Kirie	!	!LO:TX:b:t=Donanobis ut Kirie [znak alla breve] allabreve [dopisane 2 takty początku części]	!	!	!	!	!	!	!	!	!	!
2r	.	.	2r	.	2r	.	2r	.	2r	.	2r	.	.	.	.
==	==	==	==	==	==	==	==	==	==	==	==	==	==	==	==
*-	*-	*-	*-	*-	*-	*-	*-	*-	*-	*-	*-	*-	*-	*-	*-
!!!system-decoration: [(s1,s2)][(s3,s4,s5)][(s6,s7)]s8
!!!RDF**kern: | = vertical stroke
!!!RDF**kern: > = above
!!!RDF**kern: < = below
!!!ENC: Andrzej Borzym
!!!END: 2020-12-21
!!!EED: Andrzej Borzym
!!!EEV: 2022-01-08
